;FLAVOR:Marlin
;TIME:4231
;Filament used: 3.60149m
;Layer height: 0.2
;MINX:72.473
;MINY:57.126
;MINZ:0.2
;MAXX:147.533
;MAXY:162.871
;MAXZ:28.2
;TARGET_MACHINE.NAME:Creality Ender-3 S1 Pro
;Generated with Cura_SteamEngine 5.7.0
M82 ;absolute extrusion mode
; Ender 3 S1 Pro Start G-code
; M413 S0 ; Disable power loss recovery
G92 E0 ; Reset Extruder
M420 s1 z10 ; Use printer's bed-leveling mesh
; Prep surfaces before auto home for better accuracy
M140 S60
M104 S220.0

G28 ; Home all axes
G1 Z10.0 F3000 ; Move Z Axis up little to prevent scratching of Heat Bed
G1 X0 Y0

M190 S60
M109 S220.0

G1 X0.1 Y20 Z0.3 F5000.0 ; Move to start position
G1 X0.1 Y200.0 Z0.3 F1500.0 E15 ; Draw the first line
G1 X0.4 Y200.0 Z0.3 F5000.0 ; Move to side a little
G1 X0.4 Y20 Z0.3 F1500.0 E30 ; Draw the second line
G92 E0 ; Reset Extruder
G1 Z2.0 F3000 ; Move Z Axis up little to prevent scratching of Heat Bed
G1 X5 Y20 Z0.3 F5000.0 ; Move over to prevent blob squish
G92 E0
G92 E0
G1 F2400 E-0.8
;LAYER_COUNT:141
;LAYER:0
M107
M204 S2000
G0 F6000 X95.967 Y66.047 Z0.2
M204 S500
;TYPE:SKIRT
G1 F2400 E0
G1 F900 X96.572 Y65.162 E0.03566
G1 X97.003 Y64.589 E0.0595
G1 X97.648 Y63.81 E0.09314
G1 X98.14 Y63.266 E0.11754
G1 X98.794 Y62.606 E0.14844
G1 X99.131 Y62.284 E0.16394
G1 X99.417 Y62.031 E0.17664
G1 X100.349 Y61.262 E0.21683
G1 X100.929 Y60.827 E0.24095
G1 X101.657 Y60.329 E0.27028
G1 X102.15 Y60.014 E0.28974
G1 X102.44 Y59.843 E0.30094
G1 X103.347 Y59.343 E0.33539
G1 X103.91 Y59.056 E0.3564
G1 X104.223 Y58.91 E0.36789
G1 X104.992 Y58.584 E0.39567
G1 X105.95 Y58.223 E0.42972
G1 X106.334 Y58.093 E0.44321
G1 X107.215 Y57.832 E0.47377
G1 X107.599 Y57.734 E0.48695
G1 X108.502 Y57.53 E0.51774
G1 X108.885 Y57.458 E0.5307
G1 X109.919 Y57.299 E0.5655
G1 X110.264 Y57.258 E0.57705
G1 X111.241 Y57.17 E0.60968
G1 X111.609 Y57.149 E0.62194
G1 X112.673 Y57.126 E0.65733
G1 X112.986 Y57.129 E0.66775
G1 X113.757 Y57.161 E0.69341
G1 X114.069 Y57.183 E0.70381
G1 X115.023 Y57.279 E0.7357
G1 X115.404 Y57.331 E0.74849
G1 X116.393 Y57.498 E0.78185
G1 X116.778 Y57.578 E0.79493
G1 X117.842 Y57.839 E0.83137
G1 X118.504 Y58.036 E0.85434
G1 X119.525 Y58.39 E0.89028
G1 X120.945 Y58.945 E0.94099
G1 X122.223 Y59.519 E0.98759
G1 X122.881 Y59.846 E1.01203
G1 X123.194 Y60.016 E1.02388
G1 X124.292 Y60.669 E1.06637
G1 X125.444 Y61.433 E1.11234
G1 X126.2 Y61.982 E1.14342
G1 X127.441 Y62.955 E1.19587
G1 X128.09 Y63.499 E1.22403
G1 X129.791 Y65.011 E1.29973
G1 X130.559 Y65.73 E1.33472
G1 X131.212 Y66.388 E1.36555
G1 X132.098 Y67.344 E1.4089
G1 X132.699 Y68.039 E1.43946
G1 X133.817 Y69.413 E1.49838
G1 X134.345 Y70.101 E1.52723
G1 X135.126 Y71.181 E1.57156
G1 X136.079 Y72.589 E1.6281
G1 X136.874 Y73.818 E1.67679
G1 X138.571 Y76.569 E1.78429
G1 X140.505 Y79.67 E1.90585
G1 X141.281 Y81.005 E1.95721
G1 X141.934 Y82.189 E2.00218
G1 X142.413 Y83.098 E2.03635
G1 X143.296 Y84.874 E2.10232
G1 X144.188 Y86.829 E2.17379
G1 X144.855 Y88.389 E2.23022
G1 X145.263 Y89.422 E2.26716
G1 X145.624 Y90.414 E2.30228
G1 X145.947 Y91.374 E2.33596
G1 X146.328 Y92.606 E2.37885
G1 X146.793 Y94.302 E2.43735
G1 X147.096 Y95.588 E2.48129
G1 X147.293 Y96.646 E2.51708
G1 X147.436 Y97.8 E2.55576
G1 X147.509 Y98.95 E2.59409
G1 X147.533 Y100.324 E2.63979
G1 X147.532 Y115.553 E3.14631
G1 X147.493 Y117.388 E3.20736
G1 X147.466 Y117.928 E3.22534
G1 X147.363 Y118.909 E3.25815
G1 X147.227 Y119.805 E3.28829
G1 X147.09 Y120.487 E3.31143
G1 X146.856 Y121.467 E3.34494
G1 X146.701 Y122 E3.3634
G1 X146.431 Y122.839 E3.39271
G1 X146.208 Y123.475 E3.41513
G1 X145.892 Y124.316 E3.44501
G1 X145.452 Y125.432 E3.48491
G1 X145.007 Y126.498 E3.52333
G1 X144.22 Y128.228 E3.58655
G1 X143.726 Y129.214 E3.62323
G1 X143.155 Y130.266 E3.66304
G1 X142.491 Y131.402 E3.7068
G1 X141.987 Y132.202 E3.73825
G1 X141.291 Y133.238 E3.77976
G1 X140.679 Y134.094 E3.81476
G1 X140.259 Y134.647 E3.83786
G1 X139.567 Y135.513 E3.87473
G1 X138.819 Y136.392 E3.91311
G1 X138.085 Y137.206 E3.94957
G1 X137.384 Y137.936 E3.98323
G1 X136.941 Y138.378 E4.00404
G1 X134.242 Y140.926 E4.1275
G1 X132.338 Y142.827 E4.21699
G1 X130.525 Y144.74 E4.30465
G1 X128.745 Y146.731 E4.39347
G1 X127.047 Y148.741 E4.48099
G1 X125.374 Y150.837 E4.57019
G1 X123.767 Y152.973 E4.65909
G1 X122.387 Y154.91 E4.73819
G1 X121.967 Y155.468 E4.76142
G1 X121.496 Y156.046 E4.78622
G1 X121.183 Y156.409 E4.80216
G1 X120.954 Y156.655 E4.81334
G1 X120.049 Y157.57 E4.85615
G1 X119.741 Y157.865 E4.87033
G1 X119.448 Y158.125 E4.88336
G1 X118.71 Y158.735 E4.9152
G1 X118.086 Y159.21 E4.94129
G1 X117.389 Y159.69 E4.96944
G1 X116.662 Y160.15 E4.99805
G1 X115.918 Y160.571 E5.02648
G1 X115.181 Y160.949 E5.05403
G1 X114.548 Y161.237 E5.07716
G1 X113.923 Y161.503 E5.09975
G1 X113.621 Y161.62 E5.11053
G1 X112.961 Y161.854 E5.13382
G1 X112.31 Y162.064 E5.15657
G1 X111.993 Y162.154 E5.16753
G1 X111.154 Y162.365 E5.1963
G1 X110.332 Y162.54 E5.22425
G1 X109.64 Y162.652 E5.24757
G1 X108.583 Y162.784 E5.283
G1 X108.226 Y162.816 E5.29492
G1 X107.625 Y162.849 E5.31494
G1 X106.658 Y162.871 E5.34711
G1 X106.302 Y162.868 E5.35895
G1 X105.586 Y162.838 E5.38279
G1 X105.247 Y162.814 E5.39409
G1 X104.292 Y162.716 E5.42602
G1 X103.907 Y162.663 E5.43895
G1 X103.019 Y162.511 E5.46891
G1 X102.641 Y162.432 E5.48175
G1 X101.738 Y162.211 E5.51267
G1 X101.379 Y162.111 E5.52507
G1 X100.615 Y161.87 E5.55171
G1 X100.304 Y161.763 E5.56265
G1 X99.547 Y161.476 E5.58958
G1 X99.246 Y161.352 E5.60041
G1 X98.269 Y160.912 E5.63605
G1 X97.703 Y160.631 E5.65706
G1 X97.181 Y160.345 E5.67686
G1 X96.464 Y159.922 E5.70455
G1 X95.953 Y159.596 E5.72471
G1 X95.427 Y159.23 E5.74602
G1 X94.906 Y158.844 E5.76759
G1 X94.279 Y158.34 E5.79435
G1 X91.43 Y155.852 E5.92015
G1 X89.36 Y154.146 E6.00937
G1 X87.257 Y152.51 E6.09799
G1 X85.255 Y151.034 E6.18071
G1 X84.085 Y150.125 E6.22999
G1 X83.378 Y149.539 E6.26053
G1 X82.518 Y148.784 E6.2986
G1 X81.714 Y148.034 E6.33517
G1 X81.262 Y147.585 E6.35636
G1 X80.65 Y146.945 E6.38581
G1 X79.67 Y145.849 E6.43471
G1 X79.06 Y145.111 E6.46656
G1 X78.458 Y144.336 E6.4992
G1 X77.994 Y143.701 E6.52535
G1 X77.316 Y142.707 E6.56537
G1 X76.764 Y141.834 E6.59973
G1 X76.348 Y141.12 E6.62721
G1 X75.826 Y140.155 E6.6637
G1 X75.332 Y139.161 E6.70062
G1 X74.977 Y138.379 E6.72918
G1 X74.548 Y137.347 E6.76636
G1 X74.212 Y136.456 E6.79803
G1 X73.819 Y135.282 E6.8392
G1 X73.49 Y134.15 E6.87841
G1 X73.354 Y133.624 E6.89648
G1 X73.048 Y132.279 E6.94236
G1 X72.942 Y131.733 E6.96086
G1 X72.774 Y130.713 E6.99524
G1 X72.634 Y129.627 E7.03166
G1 X72.575 Y129.015 E7.05211
G1 X72.51 Y128.036 E7.08474
G1 X72.48 Y127.219 E7.11194
G1 X72.473 Y126.593 E7.13276
G1 X72.486 Y125.84 E7.15781
G1 X72.541 Y124.732 E7.1947
G1 X72.61 Y123.912 E7.22207
G1 X72.854 Y121.848 E7.2912
G1 X73.1 Y120.269 E7.34435
G1 X73.374 Y118.829 E7.39311
G1 X73.762 Y117.125 E7.45123
G1 X73.994 Y116.273 E7.4806
G1 X74.463 Y114.783 E7.53256
G1 X74.731 Y114.017 E7.55955
G1 X75.276 Y112.577 E7.61076
G1 X75.903 Y111.031 E7.66625
G1 X77.046 Y108.35 E7.76318
G1 X77.103 Y108.188 E7.76889
G1 X78.185 Y105.633 E7.86118
G1 X79.391 Y102.615 E7.96928
G1 X79.841 Y101.558 E8.00749
G1 X80.214 Y100.738 E8.03745
G1 X80.67 Y99.789 E8.07247
G1 X81.123 Y98.886 E8.10607
G1 X82.247 Y96.762 E8.18599
G1 X83.435 Y94.575 E8.26877
G1 X83.952 Y93.66 E8.30373
G1 X84.395 Y92.902 E8.33293
G1 X85.701 Y90.587 E8.42133
G1 X86.936 Y88.249 E8.50928
G1 X88.129 Y85.825 E8.59914
G1 X89.218 Y83.449 E8.68607
G1 X90.264 Y80.98 E8.77525
G1 X91.24 Y78.486 E8.86433
G1 X92.135 Y75.992 E8.95246
G1 X92.959 Y73.471 E9.04067
G1 X93.725 Y70.917 E9.12936
G1 X94.038 Y69.974 E9.16241
G1 X94.182 Y69.572 E9.17661
G1 X94.321 Y69.224 E9.18907
G1 X94.675 Y68.413 E9.2185
G1 X95.062 Y67.613 E9.24806
G1 X95.494 Y66.825 E9.27795
G1 X95.785 Y66.333 E9.29696
G1 X95.967 Y66.047 E9.30824
M204 S2000
G0 F6000 X96.297 Y66.273
M204 S500
G1 F900 X96.892 Y65.402 E9.34332
G1 X97.311 Y64.844 E9.36653
G1 X97.945 Y64.078 E9.3996
G1 X98.424 Y63.548 E9.42336
G1 X99.071 Y62.895 E9.45394
G1 X99.396 Y62.584 E9.4689
G1 X99.672 Y62.34 E9.48115
G1 X100.604 Y61.571 E9.52134
G1 X101.155 Y61.157 E9.54426
G1 X101.873 Y60.666 E9.57319
G1 X102.354 Y60.358 E9.59219
G1 X102.633 Y60.193 E9.60297
G1 X103.529 Y59.699 E9.637
G1 X104.08 Y59.418 E9.65757
G1 X104.379 Y59.278 E9.66855
G1 X105.133 Y58.958 E9.6958
G1 X106.078 Y58.602 E9.72938
G1 X106.448 Y58.477 E9.74237
G1 X107.329 Y58.216 E9.77293
G1 X107.687 Y58.124 E9.78523
G1 X108.577 Y57.923 E9.81558
G1 X108.946 Y57.853 E9.82807
G1 X109.967 Y57.696 E9.86243
G1 X110.3 Y57.656 E9.87358
G1 X111.263 Y57.569 E9.90574
G1 X111.618 Y57.549 E9.91757
G1 X112.669 Y57.526 E9.95253
G1 X112.97 Y57.529 E9.96254
G1 X113.729 Y57.56 E9.98781
G1 X114.029 Y57.581 E9.99781
G1 X114.969 Y57.675 E10.02923
G1 X115.337 Y57.725 E10.04158
G1 X116.312 Y57.89 E10.07447
G1 X116.683 Y57.967 E10.08708
G1 X117.728 Y58.223 E10.12286
G1 X118.373 Y58.414 E10.14523
G1 X119.38 Y58.763 E10.18068
G1 X120.781 Y59.31 E10.23071
G1 X122.045 Y59.877 E10.27678
G1 X122.69 Y60.197 E10.30073
G1 X122.99 Y60.36 E10.31209
G1 X124.071 Y61.002 E10.3539
G1 X125.209 Y61.757 E10.39932
G1 X125.953 Y62.297 E10.4299
G1 X127.184 Y63.261 E10.4819
G1 X127.824 Y63.798 E10.50969
G1 X129.518 Y65.303 E10.58506
G1 X130.275 Y66.012 E10.61956
G1 X130.919 Y66.66 E10.64994
G1 X131.796 Y67.606 E10.69285
G1 X132.389 Y68.291 E10.72298
G1 X133.5 Y69.657 E10.78154
G1 X134.021 Y70.335 E10.80998
G1 X134.795 Y71.405 E10.85391
G1 X135.743 Y72.806 E10.91017
G1 X136.534 Y74.028 E10.95858
G1 X138.232 Y76.781 E11.06617
G1 X140.159 Y79.871 E11.18729
G1 X140.931 Y81.198 E11.23835
G1 X141.58 Y82.376 E11.28308
G1 X142.055 Y83.276 E11.31693
G1 X142.932 Y85.04 E11.38245
G1 X143.82 Y86.986 E11.4536
G1 X144.483 Y88.536 E11.50967
G1 X144.887 Y89.559 E11.54625
G1 X145.245 Y90.542 E11.58104
G1 X145.565 Y91.492 E11.61439
G1 X145.942 Y92.712 E11.65686
G1 X146.404 Y94.394 E11.71487
G1 X146.703 Y95.661 E11.75817
G1 X146.897 Y96.703 E11.79342
G1 X146.944 Y97.031 E11.80444
G1 X147.037 Y97.833 E11.8313
G1 X147.063 Y98.145 E11.84171
G1 X147.109 Y98.957 E11.86876
G1 X147.133 Y100.324 E11.91423
G1 X147.132 Y115.545 E12.42049
G1 X147.094 Y117.368 E12.48113
G1 X147.068 Y117.886 E12.49838
G1 X146.965 Y118.867 E12.53119
G1 X146.835 Y119.726 E12.56009
G1 X146.701 Y120.394 E12.58275
G1 X146.472 Y121.355 E12.61561
G1 X146.32 Y121.878 E12.63372
G1 X146.054 Y122.707 E12.66268
G1 X145.834 Y123.334 E12.68478
G1 X145.52 Y124.169 E12.71445
G1 X145.083 Y125.278 E12.75409
G1 X144.643 Y126.332 E12.79208
G1 X143.862 Y128.049 E12.85482
G1 X143.374 Y129.023 E12.89105
G1 X142.81 Y130.064 E12.93043
G1 X142.152 Y131.189 E12.97378
G1 X141.655 Y131.979 E13.00482
G1 X140.966 Y133.005 E13.04593
G1 X140.36 Y133.852 E13.08057
G1 X139.947 Y134.397 E13.10331
G1 X139.262 Y135.254 E13.1398
G1 X138.522 Y136.124 E13.17779
G1 X137.796 Y136.929 E13.21385
G1 X137.102 Y137.653 E13.2472
G1 X136.666 Y138.087 E13.26766
G1 X133.967 Y140.635 E13.39112
G1 X132.055 Y142.544 E13.48098
G1 X130.227 Y144.473 E13.56937
G1 X128.447 Y146.464 E13.6582
G1 X126.734 Y148.491 E13.74647
G1 X125.061 Y150.587 E13.83566
G1 X123.447 Y152.733 E13.92497
G1 X122.067 Y154.669 E14.00405
G1 X121.647 Y155.227 E14.02728
G1 X121.193 Y155.785 E14.0512
G1 X120.89 Y156.136 E14.06663
G1 X120.661 Y156.382 E14.07781
G1 X119.772 Y157.281 E14.11986
G1 X119.475 Y157.566 E14.13355
G1 X119.193 Y157.817 E14.1461
G1 X118.468 Y158.417 E14.17741
G1 X117.859 Y158.881 E14.20287
G1 X117.175 Y159.352 E14.23049
G1 X116.465 Y159.802 E14.25845
G1 X115.735 Y160.215 E14.28635
G1 X115.015 Y160.585 E14.31327
G1 X114.392 Y160.869 E14.33604
G1 X113.778 Y161.13 E14.35823
G1 X113.487 Y161.243 E14.36862
G1 X112.838 Y161.473 E14.39152
G1 X112.201 Y161.679 E14.41378
G1 X111.895 Y161.766 E14.42437
G1 X111.071 Y161.974 E14.45263
G1 X110.268 Y162.145 E14.47994
G1 X109.59 Y162.255 E14.50278
G1 X108.547 Y162.386 E14.53775
G1 X108.204 Y162.417 E14.5492
G1 X107.616 Y162.449 E14.56879
G1 X106.661 Y162.471 E14.60056
G1 X106.318 Y162.468 E14.61197
G1 X105.614 Y162.439 E14.6354
G1 X105.288 Y162.416 E14.64627
G1 X104.346 Y162.32 E14.67777
G1 X103.975 Y162.269 E14.69022
G1 X103.101 Y162.119 E14.71972
G1 X102.736 Y162.043 E14.73212
G1 X101.833 Y161.822 E14.76304
G1 X101.499 Y161.729 E14.77457
G1 X100.745 Y161.492 E14.80086
G1 X100.446 Y161.389 E14.81137
G1 X99.699 Y161.106 E14.83794
G1 X99.41 Y160.987 E14.84834
G1 X98.447 Y160.554 E14.88346
G1 X97.895 Y160.28 E14.90395
G1 X97.384 Y160.001 E14.92332
G1 X96.679 Y159.585 E14.95054
G1 X96.181 Y159.267 E14.9702
G1 X95.665 Y158.909 E14.99108
G1 X95.157 Y158.532 E15.01212
G1 X94.53 Y158.028 E15.03888
G1 X91.684 Y155.543 E15.16454
G1 X89.606 Y153.83 E15.25412
G1 X87.503 Y152.194 E15.34273
G1 X85.5 Y150.718 E15.42549
G1 X84.34 Y149.817 E15.47434
G1 X83.642 Y149.238 E15.5045
G1 X82.791 Y148.491 E15.54217
G1 X81.996 Y147.75 E15.57831
G1 X81.551 Y147.308 E15.59917
G1 X80.948 Y146.678 E15.62818
G1 X79.978 Y145.594 E15.67656
G1 X79.376 Y144.866 E15.70798
G1 X78.781 Y144.1 E15.74024
G1 X78.324 Y143.476 E15.76597
G1 X77.654 Y142.494 E15.8055
G1 X77.11 Y141.632 E15.83941
G1 X76.7 Y140.929 E15.86647
G1 X76.184 Y139.977 E15.90249
G1 X75.696 Y138.996 E15.93893
G1 X75.346 Y138.225 E15.9671
G1 X74.922 Y137.206 E16.0038
G1 X74.591 Y136.329 E16.03498
G1 X74.203 Y135.17 E16.07563
G1 X73.877 Y134.05 E16.11443
G1 X73.744 Y133.535 E16.13212
G1 X73.441 Y132.203 E16.17756
G1 X73.337 Y131.668 E16.19568
G1 X73.171 Y130.662 E16.22959
G1 X73.032 Y129.588 E16.26561
G1 X72.974 Y128.989 E16.28563
G1 X72.91 Y128.021 E16.3179
G1 X72.88 Y127.214 E16.34476
G1 X72.873 Y126.599 E16.36521
G1 X72.885 Y125.86 E16.38979
G1 X72.94 Y124.765 E16.42626
G1 X73.007 Y123.959 E16.45316
G1 X73.249 Y121.91 E16.52178
G1 X73.493 Y120.344 E16.5745
G1 X73.764 Y118.918 E16.62278
G1 X74.148 Y117.23 E16.68035
G1 X74.375 Y116.393 E16.7092
G1 X74.841 Y114.915 E16.76074
G1 X75.105 Y114.159 E16.78738
G1 X75.647 Y112.727 E16.8383
G1 X76.271 Y111.188 E16.89354
G1 X77.418 Y108.498 E16.9908
G1 X77.471 Y108.344 E16.99622
G1 X78.553 Y105.789 E17.0885
G1 X79.759 Y102.772 E17.19657
G1 X80.205 Y101.723 E17.23448
G1 X80.574 Y100.911 E17.26415
G1 X81.027 Y99.969 E17.29891
G1 X81.477 Y99.073 E17.33226
G1 X82.598 Y96.953 E17.41202
G1 X83.783 Y94.772 E17.49458
G1 X84.297 Y93.862 E17.52934
G1 X84.74 Y93.104 E17.55854
G1 X86.055 Y90.774 E17.64753
G1 X87.29 Y88.436 E17.73547
G1 X88.488 Y86.002 E17.8257
G1 X89.581 Y83.616 E17.91299
G1 X90.637 Y81.126 E18.00295
G1 X91.612 Y78.632 E18.09201
G1 X92.511 Y76.127 E18.18053
G1 X93.339 Y73.595 E18.26913
G1 X94.105 Y71.043 E18.35776
G1 X94.415 Y70.109 E18.39049
G1 X94.559 Y69.707 E18.40469
G1 X94.688 Y69.384 E18.41626
G1 X95.035 Y68.587 E18.44517
G1 X95.413 Y67.805 E18.47406
G1 X95.839 Y67.028 E18.50353
G1 X96.122 Y66.548 E18.52206
G1 X96.297 Y66.273 E18.5329
M204 S2000
G0 F6000 X96.627 Y66.499
M204 S500
G1 F900 X97.212 Y65.642 E18.56742
G1 X97.619 Y65.099 E18.58999
G1 X98.242 Y64.346 E18.62249
G1 X98.708 Y63.83 E18.64562
G1 X99.348 Y63.184 E18.67586
G1 X99.673 Y62.873 E18.69082
G1 X99.927 Y62.648 E18.70211
G1 X100.844 Y61.891 E18.74166
G1 X101.381 Y61.487 E18.76401
G1 X102.089 Y61.003 E18.79253
G1 X102.558 Y60.702 E18.81107
G1 X102.826 Y60.543 E18.82143
G1 X103.711 Y60.055 E18.85505
G1 X104.251 Y59.78 E18.8752
G1 X104.535 Y59.646 E18.88565
G1 X105.274 Y59.332 E18.91235
G1 X106.206 Y58.981 E18.94548
G1 X106.562 Y58.861 E18.95797
G1 X107.443 Y58.6 E18.98853
G1 X107.775 Y58.514 E18.99994
G1 X108.652 Y58.316 E19.02984
G1 X109.007 Y58.248 E19.04187
G1 X110.015 Y58.093 E19.07579
G1 X110.336 Y58.054 E19.08654
G1 X111.285 Y57.968 E19.11823
G1 X111.627 Y57.949 E19.12963
G1 X112.665 Y57.926 E19.16416
G1 X112.954 Y57.929 E19.17377
G1 X113.701 Y57.959 E19.19864
G1 X113.989 Y57.979 E19.20824
G1 X114.915 Y58.071 E19.23919
G1 X115.27 Y58.119 E19.2511
G1 X116.232 Y58.282 E19.28356
G1 X116.588 Y58.355 E19.29564
G1 X117.615 Y58.607 E19.33082
G1 X118.242 Y58.792 E19.35256
G1 X119.235 Y59.136 E19.38751
G1 X120.617 Y59.675 E19.43685
G1 X121.881 Y60.242 E19.48293
G1 X122.499 Y60.548 E19.50586
G1 X122.786 Y60.704 E19.51673
G1 X123.85 Y61.335 E19.55787
G1 X124.974 Y62.081 E19.60274
G1 X125.706 Y62.612 E19.63282
