;FLAVOR:Marlin
;TIME:4228
;Filament used: 3.60138m
;Layer height: 0.2
;MINX:72.467
;MINY:57.126
;MINZ:0.2
;MAXX:147.525
;MAXY:162.871
;MAXZ:28.2
;TARGET_MACHINE.NAME:Creality Ender-3 S1 Pro
;Generated with Cura_SteamEngine 5.7.0
M82 ;absolute extrusion mode
; Ender 3 S1 Pro Start G-code
; M413 S0 ; Disable power loss recovery
G92 E0 ; Reset Extruder
M420 s1 z10 ; Use printer's bed-leveling mesh
; Prep surfaces before auto home for better accuracy
M140 S60
M104 S220.0

G28 ; Home all axes
G1 Z10.0 F3000 ; Move Z Axis up little to prevent scratching of Heat Bed
G1 X0 Y0

M190 S60
M109 S220.0

G1 X0.1 Y20 Z0.3 F5000.0 ; Move to start position
G1 X0.1 Y200.0 Z0.3 F1500.0 E15 ; Draw the first line
G1 X0.4 Y200.0 Z0.3 F5000.0 ; Move to side a little
G1 X0.4 Y20 Z0.3 F1500.0 E30 ; Draw the second line
G92 E0 ; Reset Extruder
G1 Z2.0 F3000 ; Move Z Axis up little to prevent scratching of Heat Bed
G1 X5 Y20 Z0.3 F5000.0 ; Move over to prevent blob squish
G92 E0
G92 E0
G1 F2400 E-0.8
;LAYER_COUNT:141
;LAYER:0
M107
M204 S2000
G0 F6000 X86.333 Y69.224 Z0.2
M204 S500
;TYPE:SKIRT
G1 F2400 E0
G1 F900 X87.376 Y67.95 E0.05476
G1 X87.925 Y67.321 E0.08253
G1 X88.969 Y66.203 E0.13341
G1 X89.693 Y65.491 E0.16718
G1 X90.88 Y64.404 E0.22071
G1 X92.056 Y63.375 E0.27269
G1 X92.806 Y62.755 E0.30505
G1 X93.973 Y61.853 E0.35411
G1 X94.992 Y61.129 E0.39569
G1 X95.613 Y60.727 E0.42029
G1 X96.682 Y60.091 E0.46166
G1 X97.342 Y59.73 E0.48668
G1 X97.739 Y59.535 E0.50139
G1 X99.287 Y58.849 E0.55771
G1 X99.586 Y58.727 E0.56845
G1 X100.738 Y58.294 E0.60938
G1 X101.699 Y57.973 E0.64308
G1 X102.45 Y57.761 E0.66904
G1 X102.887 Y57.657 E0.68398
G1 X103.847 Y57.453 E0.71662
G1 X104.238 Y57.385 E0.72982
G1 X105.156 Y57.257 E0.76065
G1 X105.543 Y57.218 E0.77358
G1 X106.816 Y57.137 E0.81601
G1 X107.502 Y57.126 E0.83883
G1 X107.853 Y57.13 E0.85051
G1 X108.926 Y57.18 E0.88623
G1 X109.262 Y57.207 E0.89744
G1 X110.071 Y57.295 E0.92451
G1 X110.444 Y57.347 E0.93704
G1 X111.604 Y57.552 E0.97622
G1 X112.505 Y57.754 E1.00693
G1 X112.797 Y57.829 E1.01695
G1 X113.3 Y57.978 E1.0344
G1 X114.284 Y58.304 E1.06888
G1 X114.64 Y58.435 E1.0815
G1 X115.418 Y58.752 E1.10944
G1 X116.014 Y59.021 E1.13119
G1 X116.824 Y59.435 E1.16144
G1 X117.763 Y59.959 E1.19721
G1 X118.264 Y60.274 E1.21689
G1 X118.99 Y60.768 E1.2461
G1 X119.276 Y60.976 E1.25786
G1 X119.948 Y61.497 E1.28614
G1 X120.41 Y61.877 E1.30604
G1 X120.657 Y62.096 E1.31702
G1 X121.42 Y62.814 E1.35186
G1 X121.911 Y63.32 E1.37531
G1 X122.618 Y64.121 E1.41085
G1 X123.1 Y64.718 E1.43637
G1 X123.693 Y65.537 E1.47
G1 X124.107 Y66.161 E1.49491
G1 X124.634 Y67.049 E1.52925
G1 X124.983 Y67.698 E1.55376
G1 X125.436 Y68.652 E1.58889
G1 X125.715 Y69.318 E1.6129
G1 X126.022 Y70.148 E1.64234
G1 X126.286 Y70.943 E1.6702
G1 X126.663 Y72.23 E1.7148
G1 X127.467 Y74.805 E1.80452
G1 X128.331 Y77.317 E1.89288
G1 X129.252 Y79.774 E1.98015
G1 X130.259 Y82.24 E2.06875
G1 X131.35 Y84.711 E2.15859
G1 X132.474 Y87.075 E2.24565
G1 X133.673 Y89.422 E2.33331
G1 X135.606 Y92.903 E2.46574
G1 X136.072 Y93.702 E2.4965
G1 X136.738 Y94.891 E2.54183
G1 X137.748 Y96.754 E2.61231
G1 X138.536 Y98.232 E2.66802
G1 X139.118 Y99.366 E2.71042
G1 X139.644 Y100.44 E2.75019
G1 X140.099 Y101.427 E2.78634
G1 X140.597 Y102.592 E2.82848
G1 X140.872 Y103.261 E2.85254
G1 X141.771 Y105.525 E2.93356
G1 X142.96 Y108.363 E3.0359
G1 X143.421 Y109.428 E3.0745
G1 X144.17 Y111.205 E3.13864
G1 X144.646 Y112.377 E3.18071
G1 X145.171 Y113.742 E3.22935
G1 X145.396 Y114.374 E3.25166
G1 X145.793 Y115.586 E3.29408
G1 X146.216 Y117.05 E3.34477
G1 X146.438 Y117.941 E3.37531
G1 X146.618 Y118.766 E3.40339
G1 X146.848 Y119.971 E3.44419
G1 X147.13 Y121.742 E3.50384
G1 X147.358 Y123.535 E3.56396
G1 X147.413 Y124.119 E3.58347
G1 X147.497 Y125.347 E3.62441
G1 X147.525 Y126.242 E3.65419
G1 X147.514 Y127.429 E3.69367
G1 X147.485 Y128.151 E3.7177
G1 X147.424 Y128.997 E3.74591
G1 X147.302 Y130.153 E3.78458
G1 X147.2 Y130.885 E3.80916
G1 X147.009 Y131.982 E3.84619
G1 X146.739 Y133.257 E3.88954
G1 X146.544 Y134.027 E3.91596
G1 X146.103 Y135.507 E3.96732
G1 X145.673 Y136.761 E4.01141
G1 X145.41 Y137.453 E4.03604
G1 X144.922 Y138.61 E4.0778
G1 X144.602 Y139.299 E4.10307
G1 X144.208 Y140.09 E4.13246
G1 X143.544 Y141.313 E4.17875
G1 X143.251 Y141.811 E4.19796
G1 X142.65 Y142.768 E4.23555
G1 X141.969 Y143.757 E4.27549
G1 X141.533 Y144.346 E4.29986
G1 X140.704 Y145.403 E4.34454
G1 X140.02 Y146.209 E4.3797
G1 X138.86 Y147.458 E4.4364
G1 X138.275 Y148.043 E4.46391
G1 X137.728 Y148.563 E4.48901
G1 X137.167 Y149.07 E4.51416
G1 X136.591 Y149.569 E4.53951
G1 X135.614 Y150.365 E4.58143
G1 X134.814 Y150.98 E4.61499
G1 X132.456 Y152.723 E4.71252
G1 X130.385 Y154.346 E4.80003
G1 X128.332 Y156.052 E4.88881
G1 X125.654 Y158.397 E5.0072
G1 X125.347 Y158.647 E5.02037
G1 X124.757 Y159.097 E5.04505
G1 X124.34 Y159.396 E5.06212
G1 X123.429 Y159.99 E5.09829
G1 X122.938 Y160.281 E5.11727
G1 X122.136 Y160.715 E5.1476
G1 X121.613 Y160.969 E5.16694
G1 X120.91 Y161.284 E5.19256
G1 X120.151 Y161.596 E5.21986
G1 X119.826 Y161.717 E5.23139
G1 X119.017 Y161.991 E5.2598
G1 X118.697 Y162.09 E5.27094
G1 X118.007 Y162.279 E5.29474
G1 X117.685 Y162.356 E5.30575
G1 X116.765 Y162.551 E5.33703
G1 X116.38 Y162.618 E5.35002
G1 X115.467 Y162.746 E5.38069
G1 X115.117 Y162.783 E5.39239
G1 X114.331 Y162.843 E5.41861
G1 X114.006 Y162.857 E5.42943
G1 X113.189 Y162.871 E5.45661
G1 X112.818 Y162.866 E5.46895
G1 X111.822 Y162.817 E5.50212
G1 X111.141 Y162.758 E5.52485
G1 X110.426 Y162.664 E5.54884
G1 X109.733 Y162.552 E5.57219
G1 X109.406 Y162.488 E5.58327
G1 X108.515 Y162.286 E5.61366
G1 X107.754 Y162.081 E5.63987
G1 X106.946 Y161.823 E5.66808
G1 X106.174 Y161.541 E5.69542
G1 X105.348 Y161.192 E5.72524
G1 X104.632 Y160.856 E5.75155
G1 X103.95 Y160.497 E5.77718
G1 X103.378 Y160.174 E5.79903
G1 X102.52 Y159.63 E5.83282
G1 X101.957 Y159.242 E5.85556
G1 X101.699 Y159.053 E5.8662
G1 X101.021 Y158.521 E5.89486
G1 X100.656 Y158.217 E5.91066
G1 X100.397 Y157.986 E5.9222
G1 X99.719 Y157.346 E5.95321
G1 X99.471 Y157.098 E5.96488
G1 X98.796 Y156.377 E5.99773
G1 X98.223 Y155.703 E6.02715
G1 X97.714 Y155.047 E6.05477
G1 X95.978 Y152.628 E6.1538
G1 X94.354 Y150.488 E6.24315
G1 X92.71 Y148.447 E6.33032
G1 X90.972 Y146.409 E6.4194
G1 X89.174 Y144.419 E6.50861
G1 X87.35 Y142.509 E6.59645
G1 X85.451 Y140.63 E6.6853
G1 X84.313 Y139.569 E6.73705
G1 X83.121 Y138.436 E6.79175
G1 X82.472 Y137.79 E6.8222
G1 X81.851 Y137.138 E6.85215
G1 X81.152 Y136.36 E6.88694
G1 X80.298 Y135.346 E6.93103
G1 X79.583 Y134.439 E6.96944
G1 X79.146 Y133.855 E6.9937
G1 X78.771 Y133.332 E7.01511
G1 X78.259 Y132.579 E7.0454
G1 X77.565 Y131.487 E7.08843
G1 X76.691 Y129.988 E7.14614
G1 X76.262 Y129.191 E7.17625
G1 X75.681 Y128.024 E7.21961
G1 X75.122 Y126.802 E7.2643
G1 X74.644 Y125.666 E7.30529
G1 X74.077 Y124.237 E7.35643
G1 X73.756 Y123.375 E7.38702
G1 X73.466 Y122.539 E7.41645
G1 X73.31 Y122.042 E7.43378
G1 X73.048 Y121.098 E7.46636
G1 X72.893 Y120.416 E7.48962
G1 X72.726 Y119.53 E7.51961
G1 X72.624 Y118.794 E7.54432
G1 X72.538 Y117.96 E7.57221
G1 X72.507 Y117.374 E7.59173
G1 X72.468 Y115.504 E7.65394
G1 X72.467 Y100.303 E8.15952
G1 X72.496 Y98.81 E8.20919
G1 X72.567 Y97.776 E8.24366
G1 X72.694 Y96.744 E8.27825
G1 X72.742 Y96.431 E8.28878
G1 X72.912 Y95.559 E8.31833
G1 X73.319 Y93.874 E8.37598
G1 X73.648 Y92.682 E8.41711
G1 X73.852 Y92 E8.44079
G1 X74.151 Y91.07 E8.47328
G1 X74.391 Y90.365 E8.49805
G1 X74.744 Y89.405 E8.53207
G1 X75.128 Y88.425 E8.56708
G1 X75.745 Y86.985 E8.61918
G1 X76.202 Y85.96 E8.65651
G1 X76.847 Y84.577 E8.70726
G1 X77.602 Y83.066 E8.76344
G1 X78.185 Y81.97 E8.80473
G1 X78.763 Y80.928 E8.84437
G1 X79.639 Y79.433 E8.902
G1 X81.434 Y76.561 E9.01464
G1 X83.08 Y73.892 E9.11894
G1 X83.931 Y72.573 E9.17115
G1 X84.441 Y71.81 E9.20167
G1 X85 Y70.999 E9.23443
G1 X85.79 Y69.92 E9.27891
G1 X86.333 Y69.224 E9.30827
M204 S2000
G0 F6000 X86.643 Y69.477
M204 S500
G1 F900 X87.677 Y68.213 E9.36259
G1 X88.217 Y67.594 E9.38991
G1 X89.249 Y66.488 E9.44022
G1 X89.963 Y65.786 E9.47352
G1 X91.143 Y64.705 E9.52675
G1 X92.311 Y63.683 E9.57837
G1 X93.051 Y63.071 E9.61031
G1 X94.205 Y62.179 E9.65882
G1 X95.209 Y61.465 E9.6998
G1 X95.818 Y61.071 E9.72392
G1 X96.874 Y60.442 E9.7648
G1 X97.518 Y60.089 E9.78923
G1 X97.901 Y59.901 E9.80342
G1 X99.439 Y59.219 E9.85938
G1 X99.727 Y59.101 E9.86973
G1 X100.865 Y58.673 E9.91017
G1 X101.808 Y58.358 E9.94324
G1 X102.543 Y58.15 E9.96864
G1 X102.97 Y58.048 E9.98324
G1 X103.916 Y57.847 E10.01541
G1 X104.293 Y57.781 E10.02814
G1 X105.197 Y57.655 E10.0585
G1 X105.568 Y57.617 E10.0709
G1 X106.823 Y57.537 E10.11273
G1 X107.497 Y57.526 E10.13515
G1 X107.835 Y57.53 E10.14639
G1 X108.894 Y57.579 E10.18165
G1 X109.219 Y57.605 E10.19249
G1 X110.016 Y57.691 E10.21916
G1 X110.375 Y57.741 E10.23121
G1 X111.517 Y57.942 E10.26978
G1 X112.406 Y58.141 E10.30008
G1 X112.683 Y58.212 E10.30959
G1 X113.174 Y58.358 E10.32663
G1 X114.147 Y58.68 E10.36072
G1 X114.489 Y58.805 E10.37283
G1 X115.254 Y59.117 E10.40031
G1 X115.832 Y59.377 E10.42139
G1 X116.629 Y59.784 E10.45115
G1 X117.55 Y60.297 E10.48621
G1 X118.039 Y60.605 E10.50544
G1 X118.755 Y61.091 E10.53422
G1 X119.031 Y61.292 E10.54557
G1 X119.694 Y61.806 E10.57348
G1 X120.145 Y62.177 E10.5929
G1 X120.383 Y62.387 E10.60346
G1 X121.133 Y63.092 E10.63769
G1 X121.611 Y63.585 E10.66053
G1 X122.318 Y64.386 E10.69607
G1 X122.776 Y64.953 E10.72031
G1 X123.36 Y65.758 E10.75339
G1 X123.763 Y66.365 E10.77762
G1 X124.282 Y67.239 E10.81143
G1 X124.622 Y67.87 E10.83527
G1 X125.067 Y68.807 E10.86977
G1 X125.34 Y69.457 E10.89322
G1 X125.642 Y70.274 E10.92219
G1 X125.902 Y71.056 E10.9496
G1 X126.281 Y72.349 E10.99441
G1 X127.085 Y74.924 E11.08413
G1 X127.956 Y77.458 E11.17326
G1 X128.878 Y79.915 E11.26054
G1 X129.893 Y82.402 E11.34988
G1 X130.984 Y84.873 E11.43972
G1 X132.118 Y87.257 E11.52753
G1 X133.323 Y89.616 E11.61563
G1 X135.256 Y93.097 E11.74806
G1 X135.723 Y93.897 E11.77887
G1 X136.386 Y95.082 E11.82404
G1 X137.395 Y96.942 E11.89442
G1 X138.18 Y98.415 E11.94993
G1 X138.759 Y99.542 E11.99207
G1 X139.281 Y100.607 E12.03152
G1 X139.731 Y101.584 E12.0673
G1 X140.227 Y102.744 E12.10926
G1 X140.5 Y103.409 E12.13317
G1 X141.402 Y105.68 E12.21444
G1 X142.593 Y108.522 E12.31693
G1 X143.052 Y109.583 E12.35538
G1 X143.799 Y111.356 E12.41937
G1 X144.273 Y112.521 E12.4612
G1 X144.794 Y113.876 E12.50949
G1 X145.016 Y114.499 E12.53148
G1 X145.409 Y115.697 E12.57342
G1 X145.828 Y117.147 E12.62362
G1 X146.047 Y118.026 E12.65375
G1 X146.225 Y118.841 E12.6815
G1 X146.453 Y120.034 E12.72189
G1 X146.733 Y121.793 E12.78113
G1 X146.96 Y123.573 E12.84082
G1 X147.014 Y124.146 E12.85996
G1 X147.097 Y125.36 E12.90043
G1 X147.125 Y126.238 E12.92965
G1 X147.114 Y127.413 E12.96873
G1 X147.086 Y128.122 E12.99233
G1 X147.026 Y128.955 E13.02011
G1 X146.906 Y130.098 E13.05833
G1 X146.806 Y130.817 E13.08248
G1 X146.618 Y131.899 E13.119
G1 X146.351 Y133.159 E13.16184
G1 X146.161 Y133.913 E13.1877
G1 X145.725 Y135.377 E13.23851
G1 X145.299 Y136.619 E13.28218
G1 X145.041 Y137.298 E13.30634
G1 X144.559 Y138.442 E13.34763
G1 X144.244 Y139.121 E13.37253
G1 X143.857 Y139.899 E13.40143
G1 X143.199 Y141.11 E13.44727
G1 X142.912 Y141.598 E13.4661
G1 X142.32 Y142.541 E13.50313
G1 X141.647 Y143.519 E13.54261
G1 X141.218 Y144.099 E13.56661
G1 X140.399 Y145.144 E13.61077
G1 X139.727 Y145.937 E13.64534
G1 X138.577 Y147.175 E13.70154
G1 X138 Y147.753 E13.7287
G1 X137.46 Y148.266 E13.75348
G1 X136.905 Y148.768 E13.77837
G1 X136.338 Y149.259 E13.80331
G1 X135.37 Y150.048 E13.84485
G1 X134.576 Y150.658 E13.87815
G1 X132.218 Y152.401 E13.97568
G1 X130.129 Y154.038 E14.06395
G1 X128.076 Y155.744 E14.15273
G1 X125.401 Y158.087 E14.27101
G1 X125.104 Y158.329 E14.28375
G1 X124.524 Y158.772 E14.30802
G1 X124.121 Y159.061 E14.32452
G1 X123.225 Y159.646 E14.36011
G1 X122.748 Y159.929 E14.37856
G1 X121.961 Y160.355 E14.40832
G1 X121.449 Y160.604 E14.42726
G1 X120.758 Y160.914 E14.45245
G1 X120.011 Y161.221 E14.47931
G1 X119.698 Y161.338 E14.49042
G1 X118.899 Y161.609 E14.51848
G1 X118.591 Y161.704 E14.5292
G1 X117.914 Y161.89 E14.55256
G1 X117.602 Y161.965 E14.56323
G1 X116.696 Y162.157 E14.59403
G1 X116.324 Y162.222 E14.60659
G1 X115.425 Y162.348 E14.63679
G1 X115.087 Y162.384 E14.64809
G1 X114.313 Y162.443 E14.67391
G1 X113.999 Y162.457 E14.68436
G1 X113.195 Y162.471 E14.71111
G1 X112.838 Y162.466 E14.72298
G1 X111.856 Y162.418 E14.75568
G1 X111.193 Y162.361 E14.77782
G1 X110.49 Y162.269 E14.8014
G1 X109.809 Y162.159 E14.82434
G1 X109.494 Y162.098 E14.83501
G1 X108.619 Y161.9 E14.86485
G1 X107.876 Y161.7 E14.89044
G1 X107.083 Y161.447 E14.91813
G1 X106.33 Y161.173 E14.94478
G1 X105.518 Y160.83 E14.9741
G1 X104.818 Y160.502 E14.99981
G1 X104.146 Y160.148 E15.02507
G1 X103.592 Y159.836 E15.04622
G1 X102.747 Y159.3 E15.0795
G1 X102.193 Y158.919 E15.10186
G1 X101.946 Y158.738 E15.11205
G1 X101.277 Y158.214 E15.14031
G1 X100.922 Y157.918 E15.15569
G1 X100.672 Y157.695 E15.16683
G1 X99.994 Y157.055 E15.19784
G1 X99.763 Y156.824 E15.2087
G1 X99.101 Y156.118 E15.24089
G1 X98.539 Y155.458 E15.26973
G1 X98.039 Y154.814 E15.29684
G1 X96.297 Y152.386 E15.39623
G1 X94.673 Y150.246 E15.48558
G1 X93.022 Y148.196 E15.57313
G1 X91.276 Y146.149 E15.66262
G1 X89.471 Y144.151 E15.75217
G1 X87.639 Y142.233 E15.84039
G1 X85.724 Y140.338 E15.93
G1 X84.589 Y139.279 E15.98163
G1 X83.403 Y138.152 E16.03604
G1 X82.762 Y137.514 E16.06612
G1 X82.149 Y136.871 E16.09567
G1 X81.458 Y136.102 E16.13006
G1 X80.612 Y135.098 E16.17372
G1 X79.903 Y134.2 E16.21178
G1 X79.471 Y133.622 E16.23578
G1 X79.102 Y133.107 E16.25685
G1 X78.597 Y132.364 E16.28673
G1 X77.903 Y131.272 E16.32977
G1 X77.043 Y129.798 E16.38653
G1 X76.62 Y129.013 E16.41618
G1 X76.045 Y127.858 E16.4591
G1 X75.491 Y126.647 E16.50339
G1 X75.016 Y125.519 E16.5441
G1 X74.452 Y124.097 E16.59498
G1 X74.134 Y123.244 E16.62526
G1 X73.848 Y122.419 E16.6543
G1 X73.692 Y121.922 E16.67162
G1 X73.438 Y121.009 E16.70314
G1 X73.286 Y120.342 E16.7259
G1 X73.122 Y119.475 E16.75524
G1 X73.022 Y118.753 E16.77949
G1 X72.936 Y117.919 E16.80737
G1 X72.907 Y117.366 E16.82579
G1 X72.868 Y115.504 E16.88774
G1 X72.867 Y100.311 E17.39306
G1 X72.895 Y98.837 E17.44209
G1 X72.964 Y97.825 E17.47583
G1 X73.089 Y96.805 E17.51001
G1 X73.135 Y96.507 E17.52004
G1 X73.301 Y95.653 E17.54897
G1 X73.705 Y93.98 E17.60622
G1 X74.031 Y92.797 E17.64703
G1 X74.233 Y92.122 E17.67046
G1 X74.529 Y91.199 E17.7027
G1 X74.767 Y90.503 E17.72717
G1 X75.116 Y89.551 E17.76089
G1 X75.496 Y88.582 E17.79551
G1 X76.11 Y87.148 E17.84739
G1 X76.565 Y86.129 E17.88451
G1 X77.205 Y84.756 E17.93489
G1 X77.955 Y83.254 E17.99073
G1 X78.535 Y82.164 E18.0318
G1 X79.108 Y81.13 E18.07112
G1 X79.978 Y79.645 E18.12836
G1 X81.773 Y76.773 E18.24101
G1 X83.416 Y74.109 E18.34511
G1 X84.264 Y72.795 E18.39712
G1 X84.77 Y72.037 E18.42744
G1 X85.323 Y71.235 E18.45984
G1 X86.105 Y70.166 E18.50389
G1 X86.643 Y69.477 E18.53296
M204 S2000
G0 F6000 X86.952 Y69.73
M204 S500
G1 F900 X87.979 Y68.476 E18.58687
G1 X88.509 Y67.867 E18.61373
G1 X89.53 Y66.773 E18.6635
G1 X90.233 Y66.081 E18.69631
G1 X91.407 Y65.006 E18.74925
G1 X92.566 Y63.991 E18.80049
G1 X93.296 Y63.387 E18.83201
G1 X94.437 Y62.505 E18.87997
G1 X95.426 Y61.801 E18.92035
G1 X96.023 Y61.415 E18.94399
G1 X97.067 Y60.793 E18.98441
G1 X97.695 Y60.448 E19.00825
G1 X98.063 Y60.267 E19.02189
G1 X99.591 Y59.589 E19.07749
G1 X99.868 Y59.475 E19.08745
G1 X100.992 Y59.052 E19.12739
G1 X101.917 Y58.743 E19.15983
G1 X102.636 Y58.539 E19.18469
G1 X103.053 Y58.439 E19.19895
G1 X103.985 Y58.241 E19.23064
G1 X104.348 Y58.177 E19.2429
G1 X105.238 Y58.053 E19.27279
G1 X105.594 Y58.016 E19.28469
G1 X106.83 Y57.937 E19.32588
G1 X107.492 Y57.926 E19.34791
G1 X107.817 Y57.93 E19.35872
G1 X108.862 Y57.978 E19.39351
G1 X109.176 Y58.003 E19.40399
G1 X109.961 Y58.087 E19.43024
G1 X110.306 Y58.135 E19.44183
G1 X111.43 Y58.332 E19.47978
G1 X112.306 Y58.528 E19.50964
G1 X112.569 Y58.596 E19.51868
G1 X113.048 Y58.738 E19.53529
G1 X114.01 Y59.056 E19.56899
G1 X114.338 Y59.176 E19.58061
G1 X115.09 Y59.482 E19.60761
G1 X115.65 Y59.733 E19.62802
G1 X116.434 Y60.133 E19.6573
G1 X117.337 Y60.636 E19.69167
