;FLAVOR:Marlin
;TIME:5870
;Filament used: 4.53297m
;Layer height: 0.2
;MINX:73.812
;MINY:59.119
;MINZ:0.2
;MAXX:146.187
;MAXY:160.881
;MAXZ:19
;TARGET_MACHINE.NAME:Creality Ender-3 S1 Pro
;Generated with Cura_SteamEngine 5.7.0
M82 ;absolute extrusion mode
; Ender 3 S1 Pro Start G-code
; M413 S0 ; Disable power loss recovery
G92 E0 ; Reset Extruder
M420 s1 z10 ; Use printer's bed-leveling mesh
; Prep surfaces before auto home for better accuracy
M140 S60
M104 S220.0

G28 ; Home all axes
G1 Z10.0 F3000 ; Move Z Axis up little to prevent scratching of Heat Bed
G1 X0 Y0

M190 S60
M109 S220.0

G1 X0.1 Y20 Z0.3 F5000.0 ; Move to start position
G1 X0.1 Y200.0 Z0.3 F1500.0 E15 ; Draw the first line
G1 X0.4 Y200.0 Z0.3 F5000.0 ; Move to side a little
G1 X0.4 Y20 Z0.3 F1500.0 E30 ; Draw the second line
G92 E0 ; Reset Extruder
G1 Z2.0 F3000 ; Move Z Axis up little to prevent scratching of Heat Bed
G1 X5 Y20 Z0.3 F5000.0 ; Move over to prevent blob squish
G92 E0
G92 E0
G1 F2400 E-0.8
;LAYER_COUNT:95
;LAYER:0
M107
M204 S2000
G0 F6000 X87.284 Y70.626 Z0.2
M204 S500
;TYPE:SKIRT
G1 F2400 E0
G1 F900 X88.301 Y69.394 E0.05313
G1 X88.833 Y68.792 E0.07985
G1 X89.479 Y68.098 E0.11139
G1 X90.088 Y67.487 E0.14008
G1 X90.916 Y66.702 E0.17803
G1 X91.674 Y66.021 E0.21192
G1 X92.62 Y65.197 E0.25365
G1 X93.36 Y64.583 E0.28563
G1 X94.304 Y63.85 E0.32538
G1 X95.382 Y63.076 E0.36952
G1 X96.153 Y62.569 E0.40021
G1 X96.976 Y62.078 E0.43209
G1 X97.905 Y61.584 E0.46708
G1 X98.845 Y61.134 E0.50174
G1 X99.328 Y60.922 E0.51929
G1 X99.999 Y60.647 E0.54341
G1 X101.212 Y60.193 E0.58649
G1 X102.085 Y59.909 E0.61702
G1 X102.863 Y59.696 E0.64385
G1 X103.747 Y59.494 E0.67401
G1 X104.223 Y59.404 E0.69012
G1 X105.191 Y59.261 E0.72267
G1 X105.966 Y59.184 E0.74857
G1 X106.821 Y59.132 E0.77706
G1 X107.758 Y59.119 E0.80823
G1 X108.056 Y59.126 E0.81814
G1 X109.108 Y59.179 E0.85318
G1 X109.986 Y59.266 E0.88252
G1 X110.703 Y59.366 E0.9066
G1 X111.962 Y59.607 E0.94923
G1 X112.733 Y59.8 E0.97567
G1 X113.452 Y60.01 E1.00058
G1 X114.359 Y60.321 E1.03247
G1 X115.392 Y60.741 E1.06956
G1 X115.687 Y60.873 E1.08031
G1 X116.588 Y61.315 E1.11369
G1 X117.36 Y61.744 E1.14307
G1 X118.032 Y62.158 E1.16932
G1 X118.494 Y62.466 E1.18778
G1 X119.222 Y62.989 E1.2176
G1 X120.085 Y63.684 E1.25445
G1 X120.614 Y64.153 E1.27797
G1 X121.106 Y64.623 E1.3006
G1 X121.822 Y65.377 E1.33518
G1 X122.439 Y66.094 E1.36664
G1 X123.099 Y66.958 E1.4028
G1 X123.66 Y67.78 E1.4359
G1 X123.828 Y68.045 E1.44634
G1 X124.273 Y68.802 E1.47555
G1 X124.511 Y69.249 E1.49239
G1 X124.947 Y70.141 E1.52541
G1 X125.236 Y70.811 E1.54968
G1 X125.598 Y71.781 E1.58412
G1 X125.698 Y72.078 E1.59454
G1 X126.596 Y75.027 E1.69707
G1 X127.442 Y77.559 E1.78586
G1 X128.355 Y80.056 E1.87429
G1 X129.336 Y82.526 E1.96269
G1 X130.394 Y84.977 E2.05148
G1 X131.507 Y87.374 E2.13938
G1 X132.701 Y89.76 E2.22812
G1 X133.963 Y92.118 E2.31707
G1 X135.5 Y94.822 E2.42052
G1 X136.101 Y95.908 E2.4618
G1 X137.56 Y98.633 E2.56461
G1 X137.891 Y99.27 E2.58849
G1 X138.541 Y100.587 E2.63733
G1 X139.285 Y102.223 E2.69711
G1 X139.678 Y103.15 E2.7306
G1 X140.677 Y105.658 E2.82039
G1 X141.76 Y108.257 E2.91404
G1 X142.255 Y109.396 E2.95534
G1 X142.887 Y110.893 E3.00939
G1 X143.384 Y112.11 E3.05311
G1 X143.951 Y113.592 E3.10589
G1 X144.275 Y114.516 E3.13845
G1 X144.754 Y116.046 E3.19178
G1 X144.991 Y116.956 E3.22305
G1 X145.37 Y118.643 E3.28056
G1 X145.591 Y119.826 E3.32059
G1 X145.837 Y121.427 E3.37446
G1 X146.043 Y123.109 E3.43083
G1 X146.138 Y124.287 E3.47013
G1 X146.187 Y125.684 E3.51663
G1 X146.175 Y126.748 E3.55202
G1 X146.127 Y127.748 E3.58532
G1 X146.077 Y128.401 E3.6071
G1 X146.008 Y129.05 E3.62881
G1 X145.867 Y130.11 E3.66437
G1 X145.669 Y131.198 E3.70115
G1 X145.439 Y132.265 E3.73746
G1 X145.214 Y133.146 E3.7677
G1 X144.976 Y133.972 E3.79629
G1 X144.55 Y135.281 E3.84208
G1 X144.143 Y136.381 E3.88109
G1 X143.782 Y137.25 E3.91238
G1 X143.459 Y137.961 E3.93836
G1 X143.088 Y138.718 E3.9664
G1 X142.562 Y139.705 E4.00359
G1 X141.957 Y140.746 E4.04364
G1 X141.441 Y141.558 E4.07564
G1 X140.641 Y142.716 E4.12245
G1 X139.951 Y143.624 E4.16038
G1 X139.493 Y144.195 E4.18473
G1 X138.992 Y144.779 E4.21032
G1 X138.201 Y145.65 E4.24945
G1 X137.817 Y146.045 E4.26778
G1 X136.901 Y146.935 E4.31026
G1 X135.632 Y148.076 E4.36702
G1 X134.723 Y148.825 E4.40619
G1 X133.962 Y149.408 E4.43807
G1 X131.331 Y151.371 E4.54726
G1 X129.239 Y153.031 E4.63608
G1 X127.209 Y154.738 E4.7243
G1 X125.111 Y156.572 E4.81698
G1 X124.291 Y157.212 E4.85158
G1 X123.663 Y157.65 E4.87704
G1 X122.788 Y158.203 E4.91147
G1 X122.155 Y158.565 E4.93572
G1 X121.863 Y158.721 E4.94673
G1 X120.909 Y159.186 E4.98203
G1 X119.906 Y159.61 E5.01825
G1 X119.177 Y159.874 E5.04404
G1 X118.352 Y160.137 E5.07284
G1 X117.811 Y160.285 E5.09149
G1 X116.877 Y160.502 E5.12338
G1 X115.849 Y160.682 E5.1581
G1 X114.845 Y160.802 E5.19173
G1 X114.134 Y160.854 E5.21544
G1 X113.262 Y160.881 E5.24446
G1 X112.919 Y160.88 E5.25586
G1 X111.856 Y160.837 E5.29125
G1 X111.051 Y160.767 E5.31812
G1 X110.127 Y160.644 E5.34913
G1 X108.982 Y160.426 E5.38789
G1 X108.327 Y160.266 E5.41032
G1 X107.454 Y160.015 E5.44053
G1 X107.016 Y159.87 E5.45588
G1 X106.391 Y159.645 E5.47797
G1 X106.066 Y159.517 E5.48959
G1 X105.353 Y159.211 E5.5154
G1 X104.738 Y158.92 E5.53802
G1 X103.93 Y158.492 E5.56844
G1 X103.058 Y157.972 E5.6022
G1 X102.618 Y157.685 E5.61968
G1 X101.903 Y157.175 E5.64889
G1 X101.153 Y156.585 E5.68063
G1 X100.394 Y155.919 E5.71421
G1 X100.166 Y155.705 E5.72461
G1 X99.509 Y155.043 E5.75563
G1 X99.109 Y154.607 E5.77531
G1 X98.426 Y153.794 E5.81063
G1 X98.204 Y153.508 E5.82267
G1 X96.287 Y150.861 E5.93137
G1 X94.668 Y148.751 E6.01983
G1 X93.002 Y146.702 E6.10766
G1 X91.254 Y144.676 E6.19666
G1 X89.464 Y142.713 E6.28502
G1 X87.6 Y140.779 E6.37436
G1 X85.71 Y138.929 E6.46232
G1 X84.561 Y137.86 E6.51452
G1 X83.757 Y137.074 E6.55192
G1 X82.662 Y135.93 E6.60459
G1 X82.021 Y135.208 E6.6367
G1 X81.32 Y134.366 E6.67314
G1 X80.526 Y133.343 E6.71621
G1 X79.601 Y132.055 E6.76896
G1 X79.148 Y131.374 E6.79616
G1 X78.516 Y130.356 E6.83601
G1 X78.032 Y129.523 E6.86805
G1 X77.511 Y128.561 E6.90444
G1 X76.837 Y127.208 E6.95472
G1 X76.588 Y126.677 E6.97422
G1 X76.135 Y125.635 E7.01201
G1 X75.684 Y124.524 E7.0519
G1 X75.257 Y123.422 E7.0912
G1 X74.959 Y122.603 E7.12019
G1 X74.645 Y121.664 E7.15312
G1 X74.483 Y121.094 E7.17283
G1 X74.282 Y120.288 E7.20046
G1 X74.131 Y119.548 E7.22558
G1 X73.971 Y118.519 E7.26022
G1 X73.895 Y117.774 E7.28512
G1 X73.831 Y116.545 E7.32605
G1 X73.812 Y115.376 E7.36494
G1 X73.815 Y100.374 E7.86391
G1 X73.825 Y99.621 E7.88896
G1 X73.842 Y99.284 E7.90018
G1 X73.942 Y97.959 E7.94437
G1 X73.99 Y97.535 E7.95857
G1 X74.099 Y96.853 E7.98154
G1 X74.305 Y95.835 E8.01608
G1 X74.632 Y94.527 E8.06093
G1 X75.029 Y93.099 E8.11022
G1 X75.532 Y91.526 E8.16515
G1 X75.938 Y90.388 E8.20534
G1 X76.42 Y89.157 E8.24931
G1 X77.017 Y87.756 E8.29996
G1 X77.728 Y86.182 E8.3574
G1 X78.22 Y85.155 E8.39528
G1 X78.792 Y84.03 E8.43726
G1 X79.8 Y82.165 E8.50777
G1 X80.233 Y81.41 E8.53671
G1 X80.8 Y80.466 E8.57334
G1 X82.556 Y77.656 E8.68355
G1 X84.038 Y75.253 E8.77745
G1 X84.797 Y74.079 E8.82395
G1 X85.278 Y73.358 E8.85278
G1 X86.143 Y72.111 E8.90325
G1 X86.539 Y71.576 E8.92539
G1 X87.284 Y70.626 E8.96555
M204 S2000
G0 F6000 X87.593 Y70.881
M204 S500
G1 F900 X88.601 Y69.659 E9.01823
G1 X89.126 Y69.064 E9.04462
G1 X89.762 Y68.38 E9.07569
G1 X90.363 Y67.777 E9.10401
G1 X91.183 Y67 E9.14158
G1 X91.937 Y66.323 E9.17528
G1 X92.876 Y65.505 E9.2167
G1 X93.605 Y64.899 E9.24823
G1 X94.537 Y64.175 E9.28748
G1 X95.602 Y63.41 E9.3311
G1 X96.358 Y62.912 E9.36121
G1 X97.164 Y62.431 E9.39243
G1 X98.078 Y61.945 E9.42686
G1 X99.006 Y61.5 E9.46109
G1 X99.479 Y61.292 E9.47827
G1 X100.139 Y61.022 E9.50199
G1 X101.336 Y60.573 E9.54451
G1 X102.191 Y60.295 E9.57441
G1 X102.952 Y60.086 E9.60066
G1 X103.821 Y59.887 E9.63031
G1 X104.282 Y59.8 E9.64592
G1 X105.231 Y59.659 E9.67783
G1 X105.99 Y59.583 E9.7032
G1 X106.827 Y59.532 E9.73109
G1 X107.75 Y59.519 E9.76179
G1 X108.036 Y59.525 E9.77131
G1 X109.069 Y59.577 E9.80571
G1 X109.931 Y59.662 E9.83452
G1 X110.628 Y59.759 E9.85792
G1 X111.865 Y59.995 E9.89981
G1 X112.621 Y60.184 E9.92573
G1 X113.322 Y60.388 E9.95001
G1 X114.209 Y60.692 E9.98119
G1 X115.229 Y61.106 E10.01781
G1 X115.511 Y61.232 E10.02808
G1 X116.394 Y61.665 E10.06079
G1 X117.15 Y62.085 E10.08955
G1 X117.81 Y62.491 E10.11533
G1 X118.261 Y62.791 E10.13334
G1 X118.971 Y63.301 E10.16242
G1 X119.82 Y63.984 E10.19866
G1 X120.338 Y64.442 E10.22166
G1 X120.816 Y64.898 E10.24363
G1 X121.519 Y65.638 E10.27758
G1 X122.121 Y66.337 E10.30826
G1 X122.769 Y67.184 E10.34373
G1 X123.322 Y67.994 E10.37635
G1 X123.483 Y68.248 E10.38635
G1 X123.928 Y69.005 E10.41556
G1 X124.152 Y69.425 E10.43139
G1 X124.58 Y70.3 E10.46379
G1 X124.861 Y70.951 E10.48737
G1 X125.219 Y71.908 E10.52136
G1 X125.315 Y72.195 E10.53142
G1 X126.214 Y75.144 E10.63396
G1 X127.066 Y77.696 E10.72345
G1 X127.983 Y80.204 E10.81226
G1 X128.964 Y82.674 E10.90066
G1 X130.031 Y85.145 E10.99018
G1 X131.149 Y87.553 E11.07848
G1 X132.348 Y89.949 E11.16759
G1 X133.615 Y92.316 E11.25689
G1 X135.15 Y95.016 E11.36019
G1 X135.748 Y96.097 E11.40128
G1 X137.205 Y98.818 E11.50394
G1 X137.532 Y99.447 E11.52752
G1 X138.177 Y100.753 E11.57596
G1 X138.917 Y102.379 E11.63538
G1 X139.306 Y103.298 E11.66857
G1 X140.305 Y105.806 E11.75836
G1 X141.393 Y108.416 E11.85241
G1 X141.886 Y109.552 E11.8936
G1 X142.518 Y111.049 E11.94765
G1 X143.01 Y112.253 E11.99091
G1 X143.577 Y113.735 E12.04368
G1 X143.893 Y114.636 E12.07544
G1 X144.367 Y116.147 E12.12811
G1 X144.601 Y117.044 E12.15894
G1 X144.977 Y118.717 E12.21598
G1 X145.196 Y119.887 E12.25557
G1 X145.44 Y121.476 E12.30904
G1 X145.644 Y123.141 E12.36483
G1 X145.738 Y124.301 E12.40354
G1 X145.787 Y125.679 E12.4494
G1 X145.775 Y126.729 E12.48432
G1 X145.728 Y127.718 E12.51725
G1 X145.679 Y128.359 E12.53864
G1 X145.612 Y128.997 E12.55997
G1 X145.473 Y130.039 E12.59494
G1 X145.278 Y131.114 E12.63127
G1 X145.051 Y132.166 E12.66707
G1 X144.83 Y133.035 E12.69689
G1 X144.596 Y133.848 E12.72503
G1 X144.175 Y135.142 E12.77029
G1 X143.773 Y136.228 E12.80881
G1 X143.418 Y137.085 E12.83966
G1 X143.1 Y137.785 E12.86523
G1 X142.735 Y138.53 E12.89282
G1 X142.216 Y139.504 E12.92953
G1 X141.619 Y140.531 E12.96904
G1 X141.103 Y141.343 E13.00104
G1 X140.323 Y142.474 E13.04674
G1 X139.639 Y143.374 E13.08433
G1 X139.189 Y143.935 E13.10825
G1 X138.696 Y144.51 E13.13345
G1 X137.914 Y145.371 E13.17213
G1 X137.538 Y145.758 E13.19008
G1 X136.633 Y146.638 E13.23206
G1 X135.378 Y147.767 E13.28821
G1 X134.48 Y148.507 E13.32691
G1 X133.723 Y149.087 E13.35863
G1 X131.092 Y151.05 E13.46781
G1 X128.99 Y152.718 E13.55706
G1 X126.952 Y154.432 E13.64563
G1 X124.865 Y156.257 E13.73784
G1 X124.062 Y156.884 E13.77172
G1 X123.449 Y157.312 E13.79659
G1 X122.59 Y157.856 E13.83041
G1 X121.967 Y158.212 E13.85427
G1 X121.688 Y158.361 E13.86479
G1 X120.734 Y158.826 E13.90009
G1 X119.769 Y159.234 E13.93494
G1 X119.056 Y159.493 E13.96017
G1 X118.246 Y159.751 E13.98844
G1 X117.72 Y159.895 E14.00658
G1 X116.786 Y160.112 E14.03848
G1 X115.801 Y160.285 E14.07174
G1 X114.816 Y160.403 E14.10473
G1 X114.121 Y160.454 E14.12791
G1 X113.263 Y160.481 E14.15646
G1 X112.935 Y160.48 E14.16737
G1 X111.89 Y160.438 E14.20216
G1 X111.104 Y160.37 E14.2284
G1 X110.18 Y160.247 E14.2594
G1 X109.057 Y160.033 E14.29742
G1 X108.437 Y159.881 E14.31866
G1 X107.579 Y159.635 E14.34834
G1 X107.151 Y159.494 E14.36333
G1 X106.537 Y159.273 E14.38504
G1 X106.224 Y159.15 E14.39622
G1 X105.524 Y158.849 E14.42156
G1 X104.925 Y158.566 E14.4436
G1 X104.135 Y158.148 E14.47333
G1 X103.263 Y157.628 E14.50709
G1 X102.85 Y157.359 E14.52349
G1 X102.15 Y156.86 E14.55208
G1 X101.417 Y156.284 E14.58308
G1 X100.668 Y155.628 E14.6162
G1 X100.45 Y155.423 E14.62615
G1 X99.803 Y154.772 E14.65668
G1 X99.415 Y154.35 E14.67575
G1 X98.742 Y153.548 E14.71057
G1 X98.528 Y153.273 E14.72216
G1 X96.61 Y150.626 E14.83088
G1 X94.985 Y148.508 E14.91967
G1 X93.305 Y146.441 E15.00826
G1 X91.55 Y144.406 E15.09764
G1 X89.76 Y142.443 E15.186
G1 X87.888 Y140.501 E15.27571
G1 X85.99 Y138.643 E15.36406
G1 X84.841 Y137.574 E15.41625
G1 X84.046 Y136.797 E15.45323
G1 X82.961 Y135.664 E15.5054
G1 X82.328 Y134.952 E15.53709
G1 X81.636 Y134.121 E15.57306
G1 X80.851 Y133.11 E15.61563
G1 X79.934 Y131.833 E15.66792
G1 X79.488 Y131.163 E15.69469
G1 X78.862 Y130.155 E15.73415
G1 X78.384 Y129.332 E15.76581
G1 X77.869 Y128.382 E15.80175
G1 X77.199 Y127.039 E15.85167
G1 X76.955 Y126.517 E15.87083
G1 X76.506 Y125.485 E15.90827
G1 X76.057 Y124.379 E15.94797
G1 X75.633 Y123.285 E15.98699
G1 X75.338 Y122.476 E16.01563
G1 X75.03 Y121.554 E16.04796
G1 X74.871 Y120.997 E16.06723
G1 X74.674 Y120.208 E16.09428
G1 X74.526 Y119.486 E16.11879
G1 X74.369 Y118.478 E16.15272
G1 X74.293 Y117.733 E16.17763
G1 X74.231 Y116.538 E16.21743
G1 X74.212 Y115.376 E16.25608
G1 X74.215 Y100.379 E16.75488
G1 X74.225 Y99.641 E16.77943
G1 X74.241 Y99.314 E16.79032
G1 X74.339 Y98.004 E16.83401
G1 X74.385 Y97.598 E16.8476
G1 X74.491 Y96.932 E16.87003
G1 X74.693 Y95.932 E16.90397
G1 X75.017 Y94.634 E16.94846
G1 X75.41 Y93.221 E16.99724
G1 X75.909 Y91.66 E17.05175
G1 X76.31 Y90.534 E17.0915
G1 X76.788 Y89.314 E17.13509
G1 X77.382 Y87.921 E17.18545
G1 X78.089 Y86.355 E17.2426
G1 X78.577 Y85.336 E17.28018
G1 X79.144 Y84.22 E17.32181
G1 X80.147 Y82.364 E17.39198
G1 X80.576 Y81.616 E17.42066
G1 X81.139 Y80.678 E17.45705
G1 X82.895 Y77.868 E17.56726
G1 X84.374 Y75.47 E17.66096
G1 X85.13 Y74.301 E17.70727
G1 X85.607 Y73.586 E17.73585
G1 X86.465 Y72.349 E17.78593
G1 X86.854 Y71.823 E17.80769
G1 X87.593 Y70.881 E17.84751
M204 S2000
G0 F6000 X87.902 Y71.136
M204 S500
G1 F900 X88.91 Y69.914 E17.90019
G1 X89.419 Y69.336 E17.92581
G1 X90.046 Y68.662 E17.95643
G1 X90.638 Y68.067 E17.98434
G1 X91.45 Y67.298 E18.02154
G1 X92.2 Y66.625 E18.05506
G1 X93.132 Y65.813 E18.09617
G1 X93.851 Y65.215 E18.12727
G1 X94.77 Y64.5 E18.166
G1 X95.822 Y63.744 E18.20909
G1 X96.563 Y63.255 E18.23862
G1 X97.352 Y62.784 E18.26918
G1 X98.251 Y62.306 E18.30304
G1 X99.167 Y61.866 E18.33684
G1 X99.631 Y61.662 E18.3537
G1 X100.28 Y61.396 E18.37703
G1 X101.46 Y60.953 E18.41895
G1 X102.297 Y60.681 E18.44822
G1 X103.042 Y60.476 E18.47392
G1 X103.895 Y60.28 E18.50303
G1 X104.341 Y60.196 E18.51813
G1 X105.271 Y60.057 E18.5494
G1 X106.014 Y59.982 E18.57424
G1 X106.833 Y59.932 E18.60153
G1 X107.743 Y59.919 E18.6318
G1 X108.016 Y59.924 E18.64088
G1 X109.03 Y59.975 E18.67465
G1 X109.876 Y60.058 E18.70293
G1 X110.553 Y60.152 E18.72566
G1 X111.768 Y60.383 E18.76679
G1 X112.509 Y60.568 E18.7922
G1 X113.193 Y60.767 E18.81589
G1 X114.059 Y61.063 E18.84633
G1 X115.067 Y61.472 E18.88251
G1 X115.335 Y61.591 E18.89226
G1 X116.2 Y62.015 E18.9243
G1 X116.94 Y62.426 E18.95246
G1 X117.6 Y62.832 E18.97823
G1 X118.028 Y63.116 E18.99531
G1 X118.72 Y63.613 E19.02365
G1 X119.555 Y64.284 E19.05928
G1 X120.062 Y64.732 E19.08178
G1 X120.526 Y65.174 E19.1031
G1 X121.216 Y65.899 E19.13638
G1 X121.803 Y66.58 E19.16629
G1 X122.439 Y67.41 E19.20107
G1 X122.984 Y68.208 E19.23321
G1 X123.138 Y68.451 E19.24278
G1 X123.575 Y69.194 E19.27145
G1 X123.793 Y69.601 E19.2868
G1 X124.213 Y70.459 E19.31857
G1 X124.486 Y71.091 E19.34147
G1 X124.844 Y72.048 E19.37546
G1 X124.932 Y72.312 E19.38471
G1 X125.832 Y75.261 E19.48726
G1 X126.69 Y77.833 E19.57744
G1 X127.611 Y80.352 E19.66665
G1 X128.593 Y82.822 E19.75506
G1 X129.668 Y85.313 E19.84529
G1 X130.791 Y87.732 E19.934
G1 X131.995 Y90.138 E20.02348
G1 X133.267 Y92.514 E20.11312
G1 X134.8 Y95.209 E20.21624
G1 X135.395 Y96.286 E20.25717
G1 X136.85 Y99.003 E20.35968
G1 X137.173 Y99.624 E20.38296
G1 X137.813 Y100.919 E20.431
G1 X138.549 Y102.535 E20.49006
G1 X138.934 Y103.446 E20.52296
G1 X139.933 Y105.954 E20.61275
G1 X141.026 Y108.575 E20.7072
G1 X141.518 Y109.708 E20.74828
G1 X142.148 Y111.2 E20.80215
G1 X142.636 Y112.396 E20.84511
G1 X143.203 Y113.878 E20.89789
G1 X143.511 Y114.756 E20.92883
G1 X143.98 Y116.248 E20.98085
G1 X144.211 Y117.132 E21.01124
G1 X144.584 Y118.791 E21.0678
G1 X144.801 Y119.948 E21.10695
G1 X145.043 Y121.525 E21.16002
G1 X145.245 Y123.173 E21.21524
