;FLAVOR:Marlin
;TIME:2327
;Filament used: 2.22141m
;Layer height: 0.2
;MINX:73.716
;MINY:57.924
;MINZ:0.2
;MAXX:147.42
;MAXY:161.672
;MAXZ:27.6
;TARGET_MACHINE.NAME:Creality Ender-3 S1 Pro
;Generated with Cura_SteamEngine 5.7.0
M82 ;absolute extrusion mode
; Ender 3 S1 Pro Start G-code
; M413 S0 ; Disable power loss recovery
G92 E0 ; Reset Extruder
M420 s1 z10 ; Use printer's bed-leveling mesh
; Prep surfaces before auto home for better accuracy
M140 S60
M104 S220.0

G28 ; Home all axes
G1 Z10.0 F3000 ; Move Z Axis up little to prevent scratching of Heat Bed
G1 X0 Y0

M190 S60
M109 S220.0

G1 X0.1 Y20 Z0.3 F5000.0 ; Move to start position
G1 X0.1 Y200.0 Z0.3 F1500.0 E15 ; Draw the first line
G1 X0.4 Y200.0 Z0.3 F5000.0 ; Move to side a little
G1 X0.4 Y20 Z0.3 F1500.0 E30 ; Draw the second line
G92 E0 ; Reset Extruder
G1 Z2.0 F3000 ; Move Z Axis up little to prevent scratching of Heat Bed
G1 X5 Y20 Z0.3 F5000.0 ; Move over to prevent blob squish
G92 E0
G92 E0
G1 F2400 E-0.8
;LAYER_COUNT:138
;LAYER:0
M107
M204 S2000
G0 F6000 X87.373 Y69.739 Z0.2
M204 S500
;TYPE:SKIRT
G1 F2400 E0
G1 F900 X88.295 Y68.612 E0.04843
G1 X88.923 Y67.893 E0.08018
G1 X89.947 Y66.795 E0.13012
G1 X90.531 Y66.216 E0.15747
G1 X91.538 Y65.291 E0.20295
G1 X92.608 Y64.35 E0.25034
G1 X93.533 Y63.573 E0.29052
G1 X94.706 Y62.657 E0.34002
G1 X95.527 Y62.067 E0.37365
G1 X96.291 Y61.558 E0.40418
G1 X96.886 Y61.186 E0.42752
G1 X98.14 Y60.479 E0.4754
G1 X98.562 Y60.275 E0.49099
G1 X99.892 Y59.682 E0.53942
G1 X100.404 Y59.474 E0.55781
G1 X101.438 Y59.086 E0.59454
G1 X102.392 Y58.768 E0.62798
G1 X102.951 Y58.601 E0.64739
G1 X103.312 Y58.51 E0.65977
G1 X104.491 Y58.253 E0.69991
G1 X104.913 Y58.179 E0.71416
G1 X105.808 Y58.054 E0.74421
G1 X106.194 Y58.015 E0.75712
G1 X107.484 Y57.933 E0.80011
G1 X108.196 Y57.924 E0.82379
G1 X108.863 Y57.941 E0.84598
G1 X109.756 Y57.996 E0.87574
G1 X110.086 Y58.026 E0.88676
G1 X110.909 Y58.124 E0.91433
G1 X111.253 Y58.176 E0.9259
G1 X112.242 Y58.357 E0.95934
G1 X112.619 Y58.439 E0.97217
G1 X113.536 Y58.674 E1.00366
G1 X113.914 Y58.784 E1.01675
G1 X114.798 Y59.078 E1.04774
G1 X115.149 Y59.208 E1.06019
G1 X116.198 Y59.642 E1.09794
G1 X116.729 Y59.891 E1.11745
G1 X117.187 Y60.127 E1.13459
G1 X117.817 Y60.47 E1.15845
G1 X118.117 Y60.648 E1.17005
G1 X118.955 Y61.175 E1.20297
G1 X119.401 Y61.476 E1.22087
G1 X119.675 Y61.675 E1.23213
G1 X120.448 Y62.274 E1.26466
G1 X121.038 Y62.775 E1.2904
G1 X121.745 Y63.433 E1.32253
G1 X122.124 Y63.808 E1.34026
G1 X122.339 Y64.036 E1.35068
G1 X122.918 Y64.688 E1.37968
G1 X123.264 Y65.1 E1.39758
G1 X123.474 Y65.372 E1.40901
G1 X124.092 Y66.221 E1.44393
G1 X124.497 Y66.832 E1.46832
G1 X124.932 Y67.558 E1.49647
G1 X125.196 Y68.03 E1.51445
G1 X125.348 Y68.327 E1.52555
G1 X125.824 Y69.329 E1.56245
G1 X126.074 Y69.928 E1.58403
G1 X126.444 Y70.94 E1.61987
G1 X126.629 Y71.504 E1.63961
G1 X127.033 Y72.844 E1.68616
G1 X127.809 Y75.318 E1.7724
G1 X128.676 Y77.828 E1.86073
G1 X129.61 Y80.302 E1.94868
G1 X130.625 Y82.773 E2.03753
G1 X131.7 Y85.198 E2.12576
G1 X132.845 Y87.593 E2.21405
G1 X134.059 Y89.959 E2.3025
G1 X135.798 Y93.075 E2.42118
G1 X136.689 Y94.638 E2.48102
G1 X138.144 Y97.325 E2.58265
G1 X138.977 Y98.908 E2.64215
G1 X139.466 Y99.885 E2.67849
G1 X139.967 Y100.941 E2.71736
G1 X140.345 Y101.791 E2.7483
G1 X140.94 Y103.221 E2.79982
G1 X141.882 Y105.591 E2.88464
G1 X143.185 Y108.688 E2.99639
G1 X143.595 Y109.634 E3.03069
G1 X144.165 Y110.992 E3.07967
G1 X144.654 Y112.196 E3.12289
G1 X145.086 Y113.33 E3.16325
G1 X145.436 Y114.322 E3.19824
G1 X145.885 Y115.734 E3.24752
G1 X146.159 Y116.716 E3.28143
G1 X146.448 Y117.916 E3.32248
G1 X146.59 Y118.582 E3.34513
G1 X146.813 Y119.775 E3.3855
G1 X146.999 Y120.944 E3.42487
G1 X147.193 Y122.36 E3.47241
G1 X147.299 Y123.338 E3.50513
G1 X147.374 Y124.233 E3.535
G1 X147.42 Y125.209 E3.5675
G1 X147.419 Y126.802 E3.62048
G1 X147.388 Y127.636 E3.64824
G1 X147.343 Y128.301 E3.67041
G1 X147.239 Y129.315 E3.70431
G1 X147.098 Y130.349 E3.73902
G1 X146.9 Y131.475 E3.77704
G1 X146.635 Y132.695 E3.81857
G1 X146.34 Y133.815 E3.85709
G1 X146.119 Y134.558 E3.88287
G1 X145.868 Y135.328 E3.90981
G1 X145.601 Y136.078 E3.93629
G1 X145.325 Y136.791 E3.96172
G1 X144.884 Y137.833 E3.99935
G1 X144.603 Y138.446 E4.02178
G1 X144.228 Y139.204 E4.0499
G1 X143.72 Y140.152 E4.08568
G1 X143.129 Y141.167 E4.12474
G1 X142.559 Y142.056 E4.15987
G1 X142.076 Y142.761 E4.18829
G1 X141.508 Y143.533 E4.22017
G1 X140.668 Y144.6 E4.26533
G1 X140.069 Y145.309 E4.2962
G1 X139.436 Y146.012 E4.32767
G1 X138.864 Y146.608 E4.35514
G1 X138.437 Y147.031 E4.37513
G1 X137.825 Y147.612 E4.4032
G1 X137.081 Y148.282 E4.4365
G1 X136.281 Y148.961 E4.4714
G1 X135.424 Y149.644 E4.50785
G1 X132.086 Y152.15 E4.64668
G1 X130.007 Y153.804 E4.73504
G1 X127.952 Y155.535 E4.82441
G1 X126.17 Y157.105 E4.9034
G1 X125.536 Y157.621 E4.93059
G1 X124.781 Y158.182 E4.96187
G1 X124.494 Y158.38 E4.97347
G1 X123.816 Y158.818 E5.00031
G1 X123.359 Y159.09 E5.018
G1 X122.524 Y159.543 E5.0496
G1 X121.961 Y159.818 E5.07044
G1 X121.284 Y160.121 E5.09511
G1 X120.616 Y160.394 E5.11911
G1 X120.304 Y160.511 E5.13019
G1 X119.45 Y160.804 E5.16022
G1 X119.109 Y160.907 E5.17207
G1 X118.354 Y161.112 E5.19809
G1 X118.007 Y161.195 E5.20996
G1 X117.115 Y161.377 E5.24024
G1 X116.758 Y161.438 E5.25228
G1 X115.969 Y161.548 E5.27878
G1 X115.632 Y161.584 E5.29005
G1 X114.828 Y161.646 E5.31687
G1 X114.482 Y161.66 E5.32839
G1 X113.641 Y161.672 E5.35636
G1 X113.258 Y161.663 E5.36911
G1 X112.271 Y161.611 E5.40198
G1 X111.789 Y161.571 E5.41807
G1 X110.921 Y161.461 E5.44717
G1 X109.952 Y161.292 E5.47988
G1 X109.297 Y161.147 E5.50219
G1 X108.619 Y160.974 E5.52547
G1 X107.58 Y160.652 E5.56165
G1 X106.809 Y160.371 E5.58894
G1 X105.946 Y160.007 E5.62009
G1 X105.239 Y159.675 E5.64607
G1 X104.611 Y159.343 E5.6697
G1 X104.05 Y159.026 E5.69113
G1 X103.779 Y158.862 E5.70166
G1 X103.022 Y158.37 E5.73169
G1 X102.388 Y157.919 E5.75757
G1 X101.717 Y157.392 E5.78595
G1 X101.333 Y157.072 E5.80257
G1 X101.071 Y156.839 E5.81424
G1 X100.446 Y156.248 E5.84285
G1 X100.204 Y156.004 E5.85428
G1 X99.503 Y155.257 E5.88835
G1 X99.275 Y155.001 E5.89975
G1 X98.954 Y154.614 E5.91647
G1 X98.495 Y154.023 E5.94136
G1 X98.07 Y153.442 E5.9653
G1 X96.921 Y151.831 E6.03112
G1 X95.319 Y149.717 E6.11934
G1 X93.666 Y147.657 E6.20719
G1 X91.923 Y145.607 E6.29668
G1 X90.16 Y143.65 E6.38429
G1 X88.308 Y141.707 E6.47357
G1 X86.42 Y139.834 E6.56202
G1 X85.27 Y138.761 E6.61434
G1 X83.816 Y137.356 E6.68158
G1 X83.061 Y136.58 E6.71759
G1 X82.436 Y135.898 E6.74836
G1 X81.975 Y135.372 E6.77163
G1 X81.42 Y134.703 E6.80054
G1 X80.645 Y133.713 E6.84235
G1 X80.008 Y132.849 E6.87806
G1 X79.736 Y132.455 E6.89398
G1 X78.993 Y131.331 E6.93879
G1 X78.41 Y130.383 E6.97581
G1 X77.989 Y129.651 E7.0039
G1 X77.432 Y128.621 E7.04284
G1 X76.897 Y127.549 E7.08269
G1 X76.626 Y126.969 E7.10398
G1 X76.058 Y125.675 E7.15099
G1 X75.574 Y124.482 E7.19381
G1 X75.042 Y123.08 E7.24368
G1 X74.791 Y122.371 E7.2687
G1 X74.517 Y121.513 E7.29865
G1 X74.291 Y120.7 E7.32672
G1 X74.128 Y119.98 E7.35127
G1 X73.972 Y119.151 E7.37933
G1 X73.876 Y118.467 E7.4023
G1 X73.78 Y117.55 E7.43297
G1 X73.756 Y117.042 E7.44988
G1 X73.717 Y115.167 E7.51226
G1 X73.716 Y100.342 E8.00534
G1 X73.748 Y98.765 E8.0578
G1 X73.809 Y97.881 E8.08728
G1 X73.842 Y97.551 E8.09831
G1 X73.942 Y96.784 E8.12403
G1 X73.994 Y96.452 E8.13521
G1 X74.152 Y95.643 E8.16262
G1 X74.462 Y94.334 E8.20737
G1 X74.961 Y92.539 E8.26933
G1 X75.329 Y91.371 E8.31006
G1 X75.699 Y90.294 E8.34794
G1 X76.305 Y88.701 E8.40463
G1 X76.674 Y87.811 E8.43667
G1 X77.377 Y86.232 E8.49416
G1 X77.996 Y84.905 E8.54286
G1 X78.757 Y83.377 E8.59964
G1 X79.095 Y82.736 E8.62374
G1 X79.885 Y81.3 E8.67825
G1 X80.736 Y79.848 E8.73423
G1 X82.505 Y77.013 E8.84537
G1 X84.267 Y74.164 E8.95679
G1 X85.413 Y72.415 E9.02633
G1 X85.933 Y71.657 E9.05691
G1 X86.695 Y70.609 E9.1
G1 X87.373 Y69.739 E9.13669
M204 S2000
G0 F6000 X87.683 Y69.992
M204 S500
G1 F900 X88.596 Y68.875 E9.18467
G1 X89.215 Y68.166 E9.21598
G1 X90.229 Y67.079 E9.26542
G1 X90.802 Y66.511 E9.29225
G1 X91.809 Y65.586 E9.33773
G1 X92.865 Y64.656 E9.38453
G1 X93.779 Y63.888 E9.42424
G1 X94.939 Y62.982 E9.4732
G1 X95.749 Y62.4 E9.50637
G1 X96.503 Y61.897 E9.53652
G1 X97.083 Y61.534 E9.55927
G1 X98.314 Y60.839 E9.60629
G1 X98.725 Y60.64 E9.62148
G1 X100.043 Y60.053 E9.66947
G1 X100.545 Y59.849 E9.68749
G1 X101.579 Y59.461 E9.72422
G1 X102.506 Y59.151 E9.75673
G1 X103.049 Y58.989 E9.77558
G1 X103.397 Y58.901 E9.78752
G1 X104.561 Y58.647 E9.82715
G1 X104.968 Y58.575 E9.84089
G1 X105.849 Y58.452 E9.87048
G1 X106.219 Y58.414 E9.88285
G1 X107.489 Y58.333 E9.92518
G1 X108.186 Y58.324 E9.94836
G1 X108.838 Y58.34 E9.97005
G1 X109.731 Y58.395 E9.99981
G1 X110.039 Y58.423 E10.0101
G1 X110.848 Y58.519 E10.03719
G1 X111.181 Y58.57 E10.0484
G1 X112.157 Y58.748 E10.08139
G1 X112.52 Y58.827 E10.09375
G1 X113.424 Y59.058 E10.12478
G1 X113.788 Y59.164 E10.13739
G1 X114.659 Y59.453 E10.16792
G1 X114.996 Y59.578 E10.17987
G1 X116.028 Y60.004 E10.217
G1 X116.546 Y60.247 E10.23604
G1 X116.996 Y60.479 E10.25287
G1 X117.613 Y60.814 E10.27623
G1 X117.904 Y60.986 E10.28747
G1 X118.731 Y61.507 E10.31998
G1 X119.177 Y61.808 E10.33787
G1 X119.43 Y61.991 E10.34826
G1 X120.189 Y62.579 E10.38019
G1 X120.765 Y63.068 E10.40532
G1 X121.472 Y63.726 E10.43745
G1 X121.833 Y64.083 E10.45433
G1 X122.04 Y64.302 E10.46436
G1 X122.612 Y64.946 E10.493
G1 X122.948 Y65.345 E10.51035
G1 X123.151 Y65.607 E10.52138
G1 X123.759 Y66.442 E10.55573
G1 X124.154 Y67.037 E10.57949
G1 X124.583 Y67.754 E10.60728
G1 X124.84 Y68.212 E10.62474
G1 X124.987 Y68.499 E10.63547
G1 X125.455 Y69.483 E10.67171
G1 X125.698 Y70.065 E10.69269
G1 X126.064 Y71.065 E10.7281
G1 X126.246 Y71.619 E10.7475
G1 X126.651 Y72.964 E10.79422
G1 X127.427 Y75.438 E10.88046
G1 X128.298 Y77.959 E10.96917
G1 X129.24 Y80.454 E11.05787
G1 X130.259 Y82.935 E11.14708
G1 X131.339 Y85.371 E11.23571
G1 X132.489 Y87.776 E11.32437
G1 X133.703 Y90.142 E11.41282
G1 X135.45 Y93.273 E11.53207
G1 X136.337 Y94.829 E11.59164
G1 X137.79 Y97.511 E11.69309
G1 X138.619 Y99.087 E11.75232
G1 X139.105 Y100.057 E11.78841
G1 X139.602 Y101.104 E11.82695
G1 X139.976 Y101.945 E11.85757
G1 X140.568 Y103.369 E11.90886
G1 X141.513 Y105.746 E11.99394
G1 X142.818 Y108.847 E12.10584
G1 X143.226 Y109.789 E12.13998
G1 X143.794 Y111.142 E12.18879
G1 X144.28 Y112.339 E12.23176
G1 X144.709 Y113.463 E12.27177
G1 X145.055 Y114.443 E12.30634
G1 X145.5 Y115.841 E12.35513
G1 X145.77 Y116.81 E12.38859
G1 X146.057 Y117.999 E12.42927
G1 X146.197 Y118.656 E12.45162
G1 X146.418 Y119.838 E12.49161
G1 X146.603 Y120.998 E12.53068
G1 X146.795 Y122.403 E12.57785
G1 X146.9 Y123.371 E12.61023
G1 X146.974 Y124.252 E12.63964
G1 X147.02 Y125.209 E12.6715
G1 X147.019 Y126.787 E12.72399
G1 X146.989 Y127.609 E12.75134
G1 X146.945 Y128.26 E12.77305
G1 X146.843 Y129.261 E12.80651
G1 X146.704 Y130.28 E12.84072
G1 X146.509 Y131.39 E12.8782
G1 X146.248 Y132.593 E12.91914
G1 X145.957 Y133.701 E12.95725
G1 X145.739 Y134.434 E12.98268
G1 X145.491 Y135.194 E13.00927
G1 X145.228 Y135.934 E13.03539
G1 X144.957 Y136.635 E13.06039
G1 X144.521 Y137.666 E13.09762
G1 X144.244 Y138.269 E13.11969
G1 X143.875 Y139.015 E13.14737
G1 X143.374 Y139.951 E13.18268
G1 X142.792 Y140.951 E13.22117
G1 X142.229 Y141.83 E13.25588
G1 X141.754 Y142.524 E13.28386
G1 X141.194 Y143.286 E13.31531
G1 X140.363 Y144.342 E13.36
G1 X139.772 Y145.041 E13.39045
G1 X139.147 Y145.735 E13.42151
G1 X138.583 Y146.324 E13.44863
G1 X138.162 Y146.741 E13.46834
G1 X137.557 Y147.315 E13.49608
G1 X136.822 Y147.977 E13.52898
G1 X136.032 Y148.648 E13.56345
G1 X135.184 Y149.324 E13.59952
G1 X131.846 Y151.83 E13.73835
G1 X129.749 Y153.498 E13.82747
G1 X127.694 Y155.229 E13.91684
G1 X125.906 Y156.805 E13.99611
G1 X125.298 Y157.3 E14.02219
G1 X124.553 Y157.853 E14.05305
G1 X124.277 Y158.044 E14.06421
G1 X123.611 Y158.474 E14.09058
G1 X123.154 Y158.746 E14.10827
G1 X122.348 Y159.184 E14.13878
G1 X121.798 Y159.453 E14.15914
G1 X121.132 Y159.751 E14.18341
G1 X120.475 Y160.02 E14.20702
G1 X120.174 Y160.133 E14.21771
G1 X119.334 Y160.421 E14.24725
G1 X119.004 Y160.521 E14.25872
G1 X118.261 Y160.723 E14.28433
G1 X117.927 Y160.803 E14.29575
G1 X117.047 Y160.983 E14.32562
G1 X116.703 Y161.042 E14.33723
G1 X115.926 Y161.15 E14.36333
G1 X115.601 Y161.185 E14.3742
G1 X114.811 Y161.246 E14.40055
G1 X114.476 Y161.26 E14.4117
G1 X113.65 Y161.272 E14.43918
G1 X113.279 Y161.264 E14.45152
G1 X112.304 Y161.212 E14.484
G1 X111.839 Y161.174 E14.49951
G1 X110.989 Y161.067 E14.52801
G1 X110.039 Y160.902 E14.56008
G1 X109.395 Y160.759 E14.58202
G1 X108.737 Y160.592 E14.6046
G1 X107.717 Y160.276 E14.64011
G1 X106.964 Y160.002 E14.66677
G1 X106.116 Y159.645 E14.69737
G1 X105.426 Y159.321 E14.72272
G1 X104.808 Y158.995 E14.74596
G1 X104.257 Y158.684 E14.767
G1 X103.997 Y158.527 E14.77711
G1 X103.254 Y158.044 E14.80658
G1 X102.62 Y157.593 E14.83246
G1 X101.973 Y157.084 E14.85984
G1 X101.599 Y156.773 E14.87602
G1 X101.346 Y156.548 E14.88728
G1 X100.73 Y155.966 E14.91547
G1 X100.496 Y155.73 E14.92652
G1 X99.802 Y154.991 E14.96024
G1 X99.583 Y154.745 E14.97119
G1 X99.27 Y154.368 E14.98749
G1 X98.818 Y153.787 E15.01197
G1 X98.396 Y153.21 E15.03575
G1 X97.24 Y151.589 E15.10197
G1 X95.638 Y149.475 E15.19019
G1 X93.971 Y147.398 E15.27877
G1 X92.228 Y145.348 E15.36827
G1 X90.45 Y143.374 E15.45663
G1 X88.598 Y141.431 E15.54591
G1 X86.702 Y139.55 E15.63474
G1 X85.548 Y138.473 E15.68724
G1 X84.103 Y137.077 E15.75406
G1 X83.356 Y136.31 E15.78967
G1 X82.737 Y135.635 E15.82013
G1 X82.283 Y135.116 E15.84307
G1 X81.735 Y134.456 E15.8716
G1 X80.967 Y133.476 E15.91301
G1 X80.337 Y132.621 E15.94834
G1 X80.07 Y132.235 E15.96395
G1 X79.334 Y131.121 E16.00835
G1 X78.757 Y130.184 E16.04495
G1 X78.341 Y129.461 E16.0727
G1 X77.79 Y128.442 E16.11123
G1 X77.259 Y127.38 E16.15072
G1 X76.992 Y126.808 E16.17171
G1 X76.429 Y125.524 E16.21834
G1 X75.948 Y124.34 E16.26085
G1 X75.419 Y122.947 E16.31041
G1 X75.172 Y122.249 E16.33504
G1 X74.902 Y121.406 E16.36448
G1 X74.681 Y120.611 E16.39192
G1 X74.521 Y119.906 E16.41597
G1 X74.368 Y119.095 E16.44342
G1 X74.274 Y118.425 E16.46592
G1 X74.18 Y117.531 E16.49582
G1 X74.156 Y117.034 E16.51237
G1 X74.117 Y115.167 E16.57448
G1 X74.116 Y100.35 E17.06729
G1 X74.147 Y98.792 E17.11912
G1 X74.207 Y97.921 E17.14816
G1 X74.239 Y97.602 E17.15882
G1 X74.337 Y96.846 E17.18418
G1 X74.387 Y96.529 E17.19485
G1 X74.545 Y95.72 E17.22227
G1 X74.847 Y94.441 E17.26598
G1 X75.342 Y92.659 E17.32749
G1 X75.707 Y91.501 E17.36787
G1 X76.073 Y90.436 E17.40533
G1 X76.674 Y88.854 E17.46162
G1 X77.039 Y87.974 E17.4933
G1 X77.739 Y86.401 E17.55057
G1 X78.354 Y85.083 E17.59894
G1 X79.111 Y83.563 E17.65542
G1 X79.445 Y82.929 E17.67925
G1 X80.23 Y81.502 E17.73342
G1 X81.075 Y80.06 E17.78901
G1 X82.844 Y77.225 E17.90016
G1 X84.602 Y74.383 E18.01131
G1 X85.743 Y72.641 E18.08057
G1 X86.257 Y71.892 E18.11078
G1 X87.011 Y70.855 E18.15342
G1 X87.683 Y69.992 E18.1898
M204 S2000
G0 F6000 X87.993 Y70.245
M204 S500
G1 F900 X88.898 Y69.138 E18.23736
G1 X89.507 Y68.439 E18.2682
G1 X90.511 Y67.363 E18.31714
G1 X91.073 Y66.806 E18.34346
G1 X92.074 Y65.886 E18.38868
G1 X93.122 Y64.962 E18.43515
G1 X94.025 Y64.203 E18.47438
G1 X95.172 Y63.307 E18.52279
G1 X95.971 Y62.733 E18.55552
G1 X96.716 Y62.236 E18.5853
G1 X97.28 Y61.882 E18.60745
G1 X98.489 Y61.199 E18.65363
G1 X98.888 Y61.005 E18.66839
G1 X100.193 Y60.424 E18.7159
G1 X100.686 Y60.224 E18.7336
G1 X101.72 Y59.836 E18.77033
G1 X102.62 Y59.534 E18.8019
G1 X103.147 Y59.377 E18.82019
G1 X103.482 Y59.292 E18.83169
G1 X104.631 Y59.041 E18.87081
G1 X105.023 Y58.971 E18.88405
G1 X105.891 Y58.85 E18.9132
G1 X106.245 Y58.813 E18.92504
G1 X107.494 Y58.733 E18.96666
G1 X108.177 Y58.724 E18.98938
G1 X108.814 Y58.739 E19.01058
G1 X109.695 Y58.793 E19.03993
G1 X109.992 Y58.82 E19.04985
G1 X110.789 Y58.915 E19.07655
G1 X111.109 Y58.963 E19.08731
G1 X112.072 Y59.139 E19.11987
G1 X112.421 Y59.215 E19.13175
G1 X113.312 Y59.442 E19.16233
G1 X113.662 Y59.544 E19.17446
G1 X114.52 Y59.828 E19.20452
G1 X114.844 Y59.948 E19.21601
G1 X115.858 Y60.366 E19.25249
